;FLAVOR:UltiGCode
;TIME:7634
;MATERIAL:18409
;MATERIAL2:0
;NOZZLE_DIAMETER:0.4
;Generated with Cura_SteamEngine 2.7.0

;LAYER_COUNT:162
;LAYER:0
M107
G0 F3600 X86.584 Y51.751 Z0.3
;TYPE:SKIRT
G1 F1800 X87.002 Y51.08 E0.09487
G1 X87.485 Y50.456 E0.18956
G1 X87.89 Y50.019 E0.26105
G1 X88.124 Y49.785 E0.30077
G1 X88.71 Y49.255 E0.39558
G1 X89.346 Y48.788 E0.49027
G1 X90.026 Y48.387 E0.585
G1 X90.744 Y48.057 E0.67982
G1 X91.491 Y47.802 E0.77454
G1 X92.26 Y47.623 E0.86929
G1 X93.044 Y47.523 E0.96413
G1 X93.639 Y47.5 E1.03558
G1 X96.357 Y47.5 E1.36174
G1 X97.146 Y47.54 E1.45654
G1 X97.926 Y47.659 E1.55123
G1 X98.691 Y47.857 E1.64605
G1 X99.431 Y48.131 E1.74074
G1 X100.14 Y48.479 E1.83552
G1 X100.572 Y48.748 E1.89659
G1 X100.845 Y48.587 E1.93462
G1 X101.563 Y48.257 E2.02945
G1 X102.31 Y48.002 E2.12417
G1 X103.079 Y47.823 E2.21891
G1 X103.863 Y47.723 E2.31375
G1 X104.458 Y47.7 E2.38521
G1 X118.542 Y47.7 E4.07529
G1 X119.331 Y47.74 E4.17009
G1 X120.111 Y47.859 E4.26477
G1 X120.876 Y48.057 E4.3596
G1 X121.616 Y48.331 E4.45429
G1 X122.325 Y48.679 E4.54907
G1 X122.43 Y48.744 E4.56388
G1 X122.518 Y48.683 E4.57673
G1 X123.208 Y48.299 E4.67149
G1 X123.934 Y47.987 E4.76632
G1 X124.687 Y47.75 E4.86105
G1 X125.46 Y47.591 E4.95575
G1 X126.246 Y47.51 E5.05057
G1 X126.647 Y47.5 E5.0987
G1 X129.361 Y47.5 E5.42438
G1 X130.15 Y47.54 E5.51918
G1 X130.93 Y47.659 E5.61387
G1 X131.695 Y47.857 E5.70869
G1 X132.435 Y48.131 E5.80338
G1 X133.144 Y48.479 E5.89816
G1 X133.815 Y48.897 E5.99303
G1 X134.439 Y49.38 E6.08772
G1 X134.876 Y49.785 E6.15921
G1 X135.11 Y50.019 E6.19893
G1 X135.64 Y50.605 E6.29374
G1 X136.107 Y51.241 E6.38843
G1 X136.508 Y51.921 E6.48316
G1 X136.838 Y52.639 E6.57798
G1 X137.093 Y53.386 E6.6727
G1 X137.272 Y54.155 E6.76745
G1 X137.372 Y54.939 E6.86229
G1 X137.395 Y55.534 E6.93374
G1 X137.396 Y165.241 E20.09858
G1 X137.356 Y166.03 E20.19338
G1 X137.237 Y166.81 E20.28807
G1 X137.039 Y167.575 E20.38289
G1 X136.765 Y168.315 E20.47758
G1 X136.417 Y169.024 E20.57236
G1 X136 Y169.695 E20.66716
G1 X135.57 Y170.256 E20.75198
G1 X135.387 Y170.474 E20.78614
G1 X134.849 Y171.052 E20.8809
G1 X134.256 Y171.573 E20.97562
G1 X133.613 Y172.032 E21.07042
G1 X132.927 Y172.423 E21.16517
G1 X132.205 Y172.742 E21.25989
G1 X131.454 Y172.987 E21.35469
G1 X131.031 Y173.089 E21.4069
G1 X130.564 Y173.188 E21.46419
G1 X129.784 Y173.313 E21.55898
G1 X129.111 Y173.356 E21.63991
G1 X126.802 Y173.405 E21.91705
G1 X126.013 Y173.382 E22.01177
G1 X125.23 Y173.279 E22.10654
G1 X124.462 Y173.098 E22.20122
G1 X123.715 Y172.839 E22.2961
G1 X122.999 Y172.507 E22.39081
G1 X122.32 Y172.104 E22.48556
G1 X122.314 Y172.1 E22.48642
G1 X122.14 Y172.201 E22.51057
G1 X121.421 Y172.526 E22.60525
G1 X120.672 Y172.777 E22.70004
G1 X119.902 Y172.951 E22.79477
G1 X119.118 Y173.047 E22.88956
G1 X118.571 Y173.066 E22.95523
G1 X104.433 Y173.068 E24.65179
G1 X103.644 Y173.028 E24.7466
G1 X102.864 Y172.909 E24.84128
G1 X102.099 Y172.711 E24.9361
G1 X101.359 Y172.437 E25.0308
G1 X100.669 Y172.1 E25.12294
G1 X100.491 Y172.224 E25.14898
G1 X99.801 Y172.608 E25.24373
G1 X99.075 Y172.92 E25.33856
G1 X98.322 Y173.156 E25.43325
G1 X97.549 Y173.316 E25.52798
G1 X96.763 Y173.397 E25.6228
G1 X96.195 Y173.405 E25.69097
G1 X93.888 Y173.356 E25.96787
G1 X93.101 Y173.3 E26.06255
G1 X92.436 Y173.188 E26.14347
G1 X91.969 Y173.089 E26.20076
G1 X91.206 Y172.887 E26.29547
G1 X90.467 Y172.608 E26.39026
G1 X89.76 Y172.256 E26.48503
G1 X89.093 Y171.834 E26.57975
G1 X88.471 Y171.347 E26.67454
G1 X87.902 Y170.8 E26.76926
G1 X87.613 Y170.474 E26.82154
G1 X87.43 Y170.256 E26.85569
G1 X86.953 Y169.626 E26.95052
G1 X86.543 Y168.952 E27.04519
G1 X86.203 Y168.239 E27.13998
G1 X85.937 Y167.495 E27.23479
G1 X85.747 Y166.729 E27.3295
G1 X85.636 Y165.947 E27.42428
G1 X85.604 Y165.241 E27.50908
G1 X85.605 Y55.534 E40.67392
G1 X85.645 Y54.745 E40.76873
G1 X85.765 Y53.965 E40.86343
G1 X85.962 Y53.2 E40.95822
G1 X86.236 Y52.46 E41.05291
G1 X86.584 Y51.751 E41.14769
G0 F3600 X86.983 Y51.857
G1 F1800 X87.399 Y51.211 E41.23989
G1 X87.88 Y50.611 E41.33217
G1 X88.172 Y50.301 E41.38328
G1 X88.406 Y50.067 E41.42299
G1 X88.978 Y49.553 E41.51527
G1 X89.6 Y49.1 E41.60761
G1 X90.265 Y48.714 E41.69988
G1 X90.967 Y48.399 E41.79221
G1 X91.698 Y48.159 E41.88453
G1 X92.449 Y47.996 E41.97675
G1 X93.214 Y47.912 E42.0691
G1 X93.639 Y47.9 E42.12012
G1 X96.357 Y47.9 E42.44628
G1 X97.125 Y47.94 E42.53857
G1 X97.885 Y48.059 E42.63088
G1 X98.628 Y48.257 E42.72315
G1 X99.347 Y48.531 E42.81549
G1 X100.033 Y48.878 E42.90774
G1 X100.561 Y49.218 E42.9831
G1 X101.084 Y48.914 E43.05569
G1 X101.786 Y48.599 E43.14802
G1 X102.517 Y48.359 E43.24035
G1 X103.268 Y48.196 E43.33257
G1 X104.033 Y48.112 E43.42492
G1 X104.458 Y48.1 E43.47594
G1 X118.542 Y48.1 E45.16602
G1 X119.31 Y48.14 E45.2583
G1 X120.07 Y48.259 E45.35061
G1 X120.813 Y48.457 E45.44289
G1 X121.532 Y48.731 E45.53522
G1 X122.218 Y49.078 E45.62747
G1 X122.441 Y49.222 E45.65933
G1 X122.901 Y48.918 E45.72549
G1 X123.583 Y48.564 E45.8177
G1 X124.299 Y48.282 E45.91004
G1 X125.04 Y48.077 E46.0023
G1 X125.799 Y47.949 E46.09467
G1 X126.647 Y47.9 E46.1966
G1 X129.361 Y47.9 E46.52228
G1 X130.129 Y47.94 E46.61456
G1 X130.889 Y48.059 E46.70687
G1 X131.632 Y48.257 E46.79915
G1 X132.351 Y48.531 E46.89148
G1 X133.037 Y48.878 E46.98373
G1 X133.684 Y49.294 E47.07604
G1 X134.284 Y49.775 E47.16832
G1 X134.594 Y50.067 E47.21942
G1 X134.828 Y50.301 E47.25913
G1 X135.342 Y50.873 E47.35141
G1 X135.795 Y51.495 E47.44375
G1 X136.181 Y52.16 E47.53602
G1 X136.496 Y52.862 E47.62835
G1 X136.736 Y53.593 E47.72068
G1 X136.899 Y54.344 E47.8129
G1 X136.983 Y55.109 E47.90525
G1 X136.995 Y55.534 E47.95627
G1 X136.996 Y165.241 E61.12111
G1 X136.956 Y166.009 E61.21339
G1 X136.837 Y166.769 E61.3057
G1 X136.639 Y167.512 E61.39798
G1 X136.365 Y168.231 E61.49031
G1 X136.018 Y168.917 E61.58256
G1 X135.602 Y169.564 E61.67486
G1 X135.264 Y169.999 E61.74097
G1 X135.081 Y170.217 E61.77512
G1 X134.556 Y170.779 E61.86741
G1 X133.976 Y171.285 E61.95978
G1 X133.347 Y171.727 E62.05203
G1 X132.675 Y172.101 E62.14432
G1 X131.968 Y172.404 E62.23662
G1 X130.948 Y172.698 E62.364
G1 X130.481 Y172.797 E62.42129
G1 X129.721 Y172.917 E62.51362
G1 X129.103 Y172.956 E62.58793
G1 X126.794 Y173.005 E62.86507
G1 X126.025 Y172.982 E62.95739
G1 X125.263 Y172.878 E63.04968
G1 X124.516 Y172.696 E63.14194
G1 X123.791 Y172.438 E63.23428
G1 X123.098 Y172.106 E63.32649
G1 X122.442 Y171.703 E63.41888
G1 X122.339 Y171.624 E63.43446
G1 X121.886 Y171.881 E63.49696
G1 X121.181 Y172.19 E63.58933
G1 X120.449 Y172.424 E63.68155
G1 X119.695 Y172.58 E63.77394
G1 X118.571 Y172.666 E63.90922
G1 X104.433 Y172.668 E65.60578
G1 X103.665 Y172.628 E65.69806
G1 X102.905 Y172.509 E65.79037
G1 X102.162 Y172.311 E65.88265
G1 X101.443 Y172.037 E65.97498
G1 X100.756 Y171.691 E66.06728
G1 X100.656 Y171.627 E66.08153
G1 X100.108 Y171.988 E66.16028
G1 X99.426 Y172.343 E66.25254
G1 X98.71 Y172.624 E66.34484
G1 X97.969 Y172.83 E66.43713
G1 X97.21 Y172.958 E66.5295
G1 X96.204 Y173.005 E66.65035
G1 X93.897 Y172.956 E66.92725
G1 X93.13 Y172.9 E67.01954
G1 X92.519 Y172.797 E67.09389
G1 X92.052 Y172.698 E67.15118
G1 X91.309 Y172.5 E67.24345
G1 X90.591 Y172.225 E67.33571
G1 X89.905 Y171.878 E67.42796
G1 X89.258 Y171.461 E67.52033
G1 X88.659 Y170.979 E67.61259
G1 X87.919 Y170.217 E67.74006
G1 X87.736 Y169.999 E67.77421
G1 X87.273 Y169.385 E67.86649
G1 X86.876 Y168.726 E67.95881
G1 X86.55 Y168.03 E68.05104
G1 X86.297 Y167.303 E68.14341
G1 X86.121 Y166.554 E68.23574
G1 X86.024 Y165.791 E68.32804
G1 X86.004 Y165.241 E68.39408
G1 X86.005 Y55.534 E81.55892
G1 X86.045 Y54.766 E81.65121
G1 X86.164 Y54.006 E81.74352
G1 X86.362 Y53.263 E81.83579
G1 X86.636 Y52.544 E81.92812
G1 X86.983 Y51.857 E82.02048
G0 F3600 X87.382 Y51.968
G1 F1800 X87.797 Y51.345 E82.11031
G1 X88.455 Y50.584 E82.23103
G1 X88.689 Y50.35 E82.27074
G1 X89.246 Y49.85 E82.36056
G1 X89.852 Y49.413 E82.45022
G1 X90.502 Y49.042 E82.54003
G1 X91.188 Y48.743 E82.62983
G1 X91.902 Y48.519 E82.71963
G1 X92.635 Y48.372 E82.80934
G1 X93.639 Y48.3 E82.93013
G1 X96.357 Y48.3 E83.25629
G1 X97.104 Y48.34 E83.34606
G1 X97.842 Y48.459 E83.43576
G1 X98.564 Y48.657 E83.5256
G1 X99.26 Y48.93 E83.61532
G1 X99.923 Y49.277 E83.70511
G1 X100.546 Y49.692 E83.79494
G1 X100.553 Y49.698 E83.79605
G1 X100.671 Y49.613 E83.8135
G1 X101.321 Y49.242 E83.90331
G1 X102.007 Y48.943 E83.99311
G1 X102.721 Y48.719 E84.08291
G1 X103.454 Y48.572 E84.17262
G1 X104.458 Y48.5 E84.29341
G1 X118.542 Y48.5 E85.98349
G1 X119.289 Y48.54 E86.07326
G1 X120.027 Y48.659 E86.16296
G1 X120.749 Y48.857 E86.2528
G1 X121.445 Y49.13 E86.34251
G1 X122.108 Y49.477 E86.43231
G1 X122.453 Y49.707 E86.48207
G1 X122.646 Y49.556 E86.51148
G1 X123.282 Y49.162 E86.60125
G1 X123.956 Y48.838 E86.69099
G1 X124.661 Y48.588 E86.78075
G1 X125.388 Y48.414 E86.87046
G1 X126.13 Y48.319 E86.96023
G1 X126.647 Y48.3 E87.02231
G1 X129.361 Y48.3 E87.34799
G1 X130.108 Y48.34 E87.43776
G1 X130.846 Y48.459 E87.52746
G1 X131.568 Y48.657 E87.6173
G1 X132.264 Y48.93 E87.70701
G1 X132.927 Y49.277 E87.79681
G1 X133.55 Y49.692 E87.88664
G1 X134.311 Y50.35 E88.00736
G1 X134.545 Y50.584 E88.04707
G1 X135.045 Y51.141 E88.13689
G1 X135.482 Y51.747 E88.22655
G1 X135.853 Y52.397 E88.31636
G1 X136.152 Y53.083 E88.40616
G1 X136.376 Y53.797 E88.49596
G1 X136.523 Y54.53 E88.58567
G1 X136.595 Y55.534 E88.70646
G1 X136.596 Y165.241 E101.8713
G1 X136.556 Y165.988 E101.96107
G1 X136.437 Y166.726 E102.05077
G1 X136.239 Y167.448 E102.14061
G1 X135.966 Y168.144 E102.23032
G1 X135.619 Y168.807 E102.32012
G1 X135.204 Y169.43 E102.40995
G1 X134.957 Y169.742 E102.4577
G1 X134.774 Y169.96 E102.49186
G1 X134.263 Y170.506 E102.5816
G1 X133.697 Y170.995 E102.67136
G1 X133.082 Y171.42 E102.76106
G1 X132.425 Y171.778 E102.85085
G1 X131.733 Y172.063 E102.94065
G1 X130.865 Y172.307 E103.04885
G1 X130.398 Y172.406 E103.10614
G1 X129.659 Y172.522 E103.1959
G1 X129.095 Y172.556 E103.26371
G1 X126.786 Y172.605 E103.54085
G1 X126.038 Y172.581 E103.63065
G1 X125.297 Y172.478 E103.72043
G1 X124.571 Y172.295 E103.81027
G1 X123.87 Y172.037 E103.89991
G1 X123.199 Y171.705 E103.98975
G1 X122.568 Y171.303 E104.07953
G1 X122.366 Y171.141 E104.1106
G1 X122.287 Y171.197 E104.12222
G1 X121.633 Y171.56 E104.21198
G1 X120.944 Y171.851 E104.30173
G1 X120.228 Y172.067 E104.39148
G1 X119.492 Y172.205 E104.48134
G1 X118.571 Y172.266 E104.5921
G1 X104.433 Y172.268 E106.28866
G1 X103.686 Y172.228 E106.37843
G1 X102.948 Y172.109 E106.46813
G1 X102.226 Y171.911 E106.55797
G1 X101.53 Y171.638 E106.64768
G1 X100.866 Y171.292 E106.73753
G1 X100.635 Y171.138 E106.77085
G1 X100.363 Y171.35 E106.81223
G1 X99.727 Y171.744 E106.90201
G1 X99.053 Y172.069 E106.9918
G1 X98.348 Y172.319 E107.08156
G1 X97.62 Y172.493 E107.17138
G1 X96.878 Y172.588 E107.26115
G1 X96.212 Y172.605 E107.3411
G1 X93.905 Y172.556 E107.618
G1 X93.159 Y172.501 E107.70776
G1 X92.602 Y172.406 E107.77557
G1 X92.135 Y172.307 E107.83285
G1 X91.413 Y172.113 E107.92257
G1 X90.715 Y171.843 E108.01237
G1 X90.05 Y171.5 E108.10216
G1 X89.426 Y171.088 E108.19189
G1 X88.849 Y170.612 E108.28165
G1 X88.226 Y169.96 E108.38987
G1 X88.043 Y169.742 E108.42402
G1 X87.593 Y169.144 E108.51383
G1 X87.21 Y168.501 E108.60364
G1 X86.897 Y167.822 E108.69336
G1 X86.659 Y167.113 E108.78311
G1 X86.498 Y166.382 E108.87293
G1 X86.415 Y165.639 E108.96265
G1 X86.404 Y165.241 E109.01042
G1 X86.405 Y55.534 E122.17526
G1 X86.445 Y54.787 E122.26503
G1 X86.564 Y54.048 E122.35485
G1 X86.762 Y53.327 E122.44458
G1 X87.035 Y52.631 E122.53429
G1 X87.382 Y51.968 E122.62409
G0 F3600 X87.78 Y52.081
G1 F1800 X88.194 Y51.484 E122.71127
G1 X88.738 Y50.867 E122.80998
G1 X88.972 Y50.633 E122.84969
G1 X89.513 Y50.149 E122.9368
G1 X90.104 Y49.726 E123.02401
G1 X90.738 Y49.372 E123.11115
G1 X91.407 Y49.089 E123.19832
G1 X92.103 Y48.881 E123.28549
G1 X92.818 Y48.751 E123.37269
G1 X93.639 Y48.7 E123.4714
G1 X96.357 Y48.7 E123.79756
G1 X97.082 Y48.74 E123.88469
G1 X97.799 Y48.859 E123.97191
G1 X98.498 Y49.057 E124.05909
G1 X99.171 Y49.33 E124.14624
G1 X99.81 Y49.675 E124.23339
G1 X100.407 Y50.089 E124.32057
G1 X100.537 Y50.202 E124.34124
G1 X100.923 Y49.926 E124.39818
G1 X101.557 Y49.572 E124.48531
G1 X102.226 Y49.289 E124.57248
G1 X102.922 Y49.081 E124.65965
G1 X103.637 Y48.951 E124.74686
G1 X104.458 Y48.9 E124.84557
G1 X118.542 Y48.9 E126.53565
G1 X119.267 Y48.94 E126.62278
G1 X119.984 Y49.059 E126.71
G1 X120.683 Y49.257 E126.79718
G1 X121.356 Y49.53 E126.88433
G1 X121.995 Y49.875 E126.97147
G1 X122.461 Y50.198 E127.03951
G1 X123.032 Y49.778 E127.12457
G1 X123.66 Y49.414 E127.21168
G1 X124.325 Y49.122 E127.29883
G1 X125.018 Y48.904 E127.38601
G1 X125.731 Y48.764 E127.4732
G1 X126.647 Y48.7 E127.58339
G1 X129.361 Y48.7 E127.90907
G1 X130.086 Y48.74 E127.9962
G1 X130.803 Y48.859 E128.08342
G1 X131.502 Y49.057 E128.1706
G1 X132.175 Y49.33 E128.25775
G1 X132.814 Y49.675 E128.34489
G1 X133.411 Y50.089 E128.43207
G1 X134.028 Y50.633 E128.53078
G1 X134.262 Y50.867 E128.57049
G1 X134.746 Y51.408 E128.6576
G1 X135.169 Y51.999 E128.74481
G1 X135.523 Y52.633 E128.83195
G1 X135.806 Y53.302 E128.91912
G1 X136.014 Y53.998 E129.00629
G1 X136.144 Y54.713 E129.09349
G1 X136.195 Y55.534 E129.1922
G1 X136.196 Y165.241 E142.35704
G1 X136.156 Y165.966 E142.44418
G1 X136.037 Y166.683 E142.53139
G1 X135.839 Y167.382 E142.61857
G1 X135.566 Y168.055 E142.70573
G1 X135.221 Y168.694 E142.79287
G1 X134.651 Y169.484 E142.90977
G1 X134.468 Y169.702 E142.94392
G1 X133.971 Y170.232 E143.03111
G1 X133.419 Y170.704 E143.11827
G1 X132.818 Y171.113 E143.2055
G1 X132.176 Y171.453 E143.29268
G1 X131.501 Y171.72 E143.37979
G1 X130.782 Y171.916 E143.46921
G1 X130.315 Y172.015 E143.5265
G1 X129.597 Y172.126 E143.61368
G1 X129.086 Y172.157 E143.67512
G1 X126.777 Y172.206 E143.95226
G1 X126.051 Y172.181 E144.03943
G1 X125.332 Y172.077 E144.12661
G1 X124.629 Y171.894 E144.21378
G1 X123.95 Y171.635 E144.30099
G1 X123.304 Y171.304 E144.38809
G1 X122.698 Y170.903 E144.47529
G1 X122.383 Y170.641 E144.52445
G1 X122.021 Y170.892 E144.57731
G1 X121.382 Y171.237 E144.66446
G1 X120.709 Y171.51 E144.75161
G1 X120.01 Y171.707 E144.83876
G1 X119.293 Y171.826 E144.92597
G1 X118.571 Y171.866 E145.01275
G1 X104.433 Y171.868 E146.70931
G1 X103.708 Y171.828 E146.79644
G1 X102.991 Y171.709 E146.88366
G1 X102.292 Y171.511 E146.97084
G1 X101.619 Y171.239 E147.05794
G1 X100.98 Y170.893 E147.14514
G1 X100.62 Y170.644 E147.19767
G1 X100.562 Y170.697 E147.2071
G1 X99.977 Y171.128 E147.29429
G1 X99.348 Y171.492 E147.3815
G1 X98.684 Y171.785 E147.46859
G1 X97.991 Y172.003 E147.55577
G1 X97.278 Y172.143 E147.64296
G1 X96.221 Y172.206 E147.77003
G1 X93.914 Y172.157 E148.04693
G1 X93.19 Y172.101 E148.13407
G1 X92.685 Y172.015 E148.19554
G1 X92.218 Y171.916 E148.25283
G1 X91.517 Y171.726 E148.33998
G1 X90.841 Y171.461 E148.42711
G1 X90.198 Y171.122 E148.51434
G1 X89.596 Y170.716 E148.60147
G1 X89.043 Y170.245 E148.68864
G1 X88.532 Y169.702 E148.77812
G1 X88.349 Y169.484 E148.81227
G1 X87.913 Y168.903 E148.89944
G1 X87.544 Y168.278 E148.98654
G1 X87.246 Y167.615 E149.07376
G1 X87.022 Y166.924 E149.16093
G1 X86.876 Y166.213 E149.24803
G1 X86.804 Y165.241 E149.36499
G1 X86.805 Y55.534 E162.52983
G1 X86.845 Y54.809 E162.61696
G1 X86.964 Y54.092 E162.70418
G1 X87.162 Y53.393 E162.79136
G1 X87.435 Y52.72 E162.87851
G1 X87.78 Y52.081 E162.96566
G0 F3600 X88.179 Y52.198
G1 F1800 X88.591 Y51.628 E163.05005
G1 X89.021 Y51.15 E163.12721
G1 X89.255 Y50.916 E163.16692
G1 X89.78 Y50.447 E163.25139
G1 X90.355 Y50.041 E163.33586
G1 X90.973 Y49.703 E163.42039
G1 X91.624 Y49.436 E163.50482
G1 X92.302 Y49.246 E163.58932
G1 X92.997 Y49.133 E163.67381
G1 X93.639 Y49.1 E163.75096
G1 X96.357 Y49.1 E164.07712
G1 X97.06 Y49.14 E164.16161
G1 X97.754 Y49.259 E164.24611
G1 X98.429 Y49.457 E164.33052
G1 X99.078 Y49.729 E164.41496
G1 X99.692 Y50.074 E164.49948
G1 X100.263 Y50.485 E164.5839
G1 X100.519 Y50.718 E164.62544
G1 X100.599 Y50.647 E164.63828
G1 X101.174 Y50.241 E164.72274
G1 X101.792 Y49.903 E164.80727
G1 X102.443 Y49.636 E164.89171
G1 X103.121 Y49.446 E164.9762
G1 X103.816 Y49.333 E165.06069
G1 X104.458 Y49.3 E165.13784
G1 X118.542 Y49.3 E166.82792
