;FLAVOR:UltiGCode
;TIME:6521
;MATERIAL:16744
;MATERIAL2:0
;NOZZLE_DIAMETER:0.4
;Generated with Cura_SteamEngine 3.0.3
M82 ; absolute extrusion mode

;LAYER_COUNT:154
;LAYER:0
M107
G0 F3600 X55.246 Y74.542 Z0.3
;TYPE:SKIRT
G1 F1800 X55.797 Y74.153 E0.08094
G1 X55.98 Y74.035 E0.10707
G1 X56.665 Y73.641 E0.20189
G1 X57.385 Y73.318 E0.29659
G1 X58.135 Y73.07 E0.39138
G1 X58.906 Y72.899 E0.48615
G1 X59.69 Y72.807 E0.58088
G1 X60.48 Y72.795 E0.67569
G1 X61.267 Y72.862 E0.77047
G1 X62.043 Y73.009 E0.86525
G1 X62.8 Y73.234 E0.96001
G1 X63.393 Y73.47 E1.0366
G1 X64.468 Y73.951 E1.17793
G1 X65.048 Y74.247 E1.25607
G1 X65.177 Y74.157 E1.27494
G1 X65.866 Y73.771 E1.36971
G1 X66.59 Y73.456 E1.46446
G1 X67.343 Y73.217 E1.55926
G1 X68.115 Y73.054 E1.65394
G1 X68.901 Y72.971 E1.74879
G1 X69.331 Y72.959 E1.80041
G1 X73.248 Y72.959 E2.27045
G1 X73.461 Y72.929 E2.29626
G1 X74.425 Y72.903 E2.41198
G1 X79.372 Y73.073 E3.00597
G1 X80.159 Y73.14 E3.10075
G1 X80.935 Y73.286 E3.19551
G1 X81.692 Y73.51 E3.29024
G1 X82.423 Y73.809 E3.38502
G1 X83.119 Y74.181 E3.47972
G1 X83.775 Y74.621 E3.5745
G1 X84.383 Y75.126 E3.66935
G1 X84.995 Y75.756 E3.77475
G1 X85.218 Y76.013 E3.81558
G1 X85.705 Y76.635 E3.91038
G1 X86.126 Y77.303 E4.00513
G1 X86.478 Y78.01 E4.0999
G1 X86.756 Y78.749 E4.19465
G1 X86.958 Y79.512 E4.28936
G1 X87.038 Y79.949 E4.34267
G1 X92.847 Y118.03 E8.96526
G1 X98.96 Y77.94 E13.83166
G1 X99.119 Y77.167 E13.92636
G1 X99.354 Y76.413 E14.02114
G1 X99.665 Y75.687 E14.11591
G1 X100.048 Y74.996 E14.21072
G1 X100.498 Y74.348 E14.30539
G1 X100.89 Y73.88 E14.37865
G1 X101.111 Y73.636 E14.41815
G1 X101.67 Y73.078 E14.51293
G1 X102.282 Y72.58 E14.60761
G1 X102.942 Y72.146 E14.7024
G1 X103.643 Y71.781 E14.79724
G1 X104.376 Y71.489 E14.89193
G1 X105.136 Y71.272 E14.98677
G1 X105.913 Y71.134 E15.08147
G1 X106.626 Y71.077 E15.1673
G1 X111.574 Y70.908 E15.76141
G1 X112.363 Y70.921 E15.8561
G1 X112.686 Y70.958 E15.89512
G1 X116.676 Y70.959 E16.37392
G1 X117.464 Y70.999 E16.4686
G1 X118.245 Y71.119 E16.56342
G1 X119.009 Y71.317 E16.65813
G1 X119.75 Y71.591 E16.75293
G1 X120.459 Y71.939 E16.84771
G1 X120.952 Y72.246 E16.9174
G1 X121.044 Y72.191 E16.93026
G1 X121.532 Y71.951 E16.99552
G1 X122.607 Y71.47 E17.13684
G1 X123.344 Y71.185 E17.23167
G1 X124.105 Y70.975 E17.3264
G1 X124.883 Y70.843 E17.42109
G1 X125.671 Y70.791 E17.51586
G1 X126.461 Y70.819 E17.61072
G1 X127.243 Y70.926 E17.70543
G1 X128.01 Y71.112 E17.80014
G1 X128.755 Y71.374 E17.89491
G1 X129.47 Y71.711 E17.98976
G1 X130.02 Y72.035 E18.06636
G1 X130.203 Y72.153 E18.09249
G1 X130.844 Y72.614 E18.18724
G1 X131.435 Y73.137 E18.28194
G1 X131.971 Y73.718 E18.3768
G1 X132.445 Y74.349 E18.4715
G1 X132.852 Y75.026 E18.56629
G1 X133.189 Y75.74 E18.66104
G1 X133.452 Y76.484 E18.75573
G1 X133.639 Y77.252 E18.85058
G1 X133.747 Y78.034 E18.94531
G1 X133.776 Y78.708 E19.02627
G1 X133.776 Y144.271 E26.89383
G1 X133.736 Y145.06 E26.98863
G1 X133.617 Y145.84 E27.08331
G1 X133.419 Y146.605 E27.17814
G1 X133.145 Y147.345 E27.27283
G1 X132.797 Y148.054 E27.36761
G1 X132.379 Y148.725 E27.46247
G1 X131.896 Y149.349 E27.55716
G1 X131.353 Y149.922 E27.65189
G1 X130.754 Y150.437 E27.74669
G1 X130.02 Y150.941 E27.85353
G1 X129.827 Y151.058 E27.88062
G1 X129.131 Y151.433 E27.97549
G1 X128.402 Y151.735 E28.07018
G1 X127.646 Y151.962 E28.1649
G1 X126.87 Y152.112 E28.25974
G1 X126.084 Y152.182 E28.35444
G1 X125.294 Y152.173 E28.44924
G1 X124.509 Y152.083 E28.54406
G1 X123.738 Y151.915 E28.63875
G1 X122.987 Y151.67 E28.73354
G1 X122.116 Y151.272 E28.84846
G1 X120.798 Y150.57 E29.02765
G1 X120.75 Y150.541 E29.03438
G1 X120.548 Y150.681 E29.06388
G1 X119.857 Y151.062 E29.15857
G1 X119.13 Y151.371 E29.25336
G1 X118.376 Y151.605 E29.3481
G1 X117.602 Y151.762 E29.44287
G1 X116.816 Y151.84 E29.53765
G1 X116.375 Y151.849 E29.59058
G1 X112.661 Y151.817 E30.03628
G1 X112.65 Y151.819 E30.03762
G1 X111.863 Y151.887 E30.13241
G1 X111.39 Y151.89 E30.18917
G1 X107.703 Y151.797 E30.63175
G1 X107.128 Y151.761 E30.70089
G1 X106.746 Y151.723 E30.74696
G1 X106.657 Y151.736 E30.75775
G1 X105.73 Y151.767 E30.86905
G1 X101.946 Y151.671 E31.32328
G1 X101.481 Y151.72 E31.37939
G1 X100.856 Y151.73 E31.4544
G1 X99.944 Y151.707 E31.56387
G1 X99.222 Y151.788 E31.65105
G1 X98.556 Y151.801 E31.73099
G1 X96.915 Y151.761 E31.92797
G1 X96.127 Y151.702 E32.02279
G1 X95.35 Y151.563 E32.11751
G1 X94.591 Y151.347 E32.21221
G1 X94.543 Y151.328 E32.2184
G1 X94.361 Y151.524 E32.2505
G1 X93.767 Y152.045 E32.34531
G1 X93.125 Y152.504 E32.44002
G1 X92.439 Y152.895 E32.53477
G1 X91.716 Y153.215 E32.62965
G1 X90.966 Y153.46 E32.72433
G1 X90.194 Y153.628 E32.81914
G1 X89.121 Y153.729 E32.94847
G1 X87.351 Y153.774 E33.16094
G1 X86.562 Y153.755 E33.25564
G1 X86.131 Y153.705 E33.30771
G1 X85.227 Y153.729 E33.41623
G1 X84.438 Y153.71 E33.51094
G1 X84.068 Y153.667 E33.55563
G1 X80.355 Y153.763 E34.00134
G1 X79.565 Y153.744 E34.09617
G1 X79.501 Y153.736 E34.10391
G1 X78.779 Y153.797 E34.19086
G1 X74.497 Y153.891 E34.70482
G1 X73.708 Y153.868 E34.79954
G1 X73.307 Y153.816 E34.84807
G1 X69.6 Y153.83 E35.29291
G1 X68.811 Y153.793 E35.38769
G1 X68.03 Y153.676 E35.48246
G1 X67.265 Y153.482 E35.57716
G1 X66.523 Y153.21 E35.672
G1 X65.813 Y152.865 E35.76672
G1 X65.268 Y152.529 E35.84355
G1 X65.202 Y152.57 E35.85288
G1 X63.884 Y153.272 E36.03207
G1 X63.169 Y153.608 E36.12688
G1 X62.424 Y153.869 E36.2216
G1 X61.656 Y154.054 E36.3164
G1 X60.874 Y154.16 E36.4111
G1 X60.084 Y154.187 E36.50595
G1 X59.296 Y154.133 E36.60073
G1 X58.518 Y154.001 E36.69543
G1 X57.757 Y153.79 E36.79019
G1 X57.021 Y153.503 E36.88499
G1 X56.173 Y153.058 E36.99991
G1 X55.98 Y152.941 E37.02699
G1 X55.327 Y152.498 E37.12169
G1 X54.721 Y151.991 E37.2165
G1 X54.17 Y151.426 E37.3112
G1 X53.679 Y150.807 E37.40601
G1 X53.253 Y150.143 E37.50068
G1 X52.896 Y149.438 E37.59551
G1 X52.612 Y148.701 E37.69029
G1 X52.404 Y147.939 E37.78507
G1 X52.275 Y147.16 E37.87983
G1 X52.224 Y146.271 E37.98668
G1 X52.224 Y80.708 E45.85424
G1 X52.264 Y79.919 E45.94904
G1 X52.383 Y79.139 E46.04373
G1 X52.581 Y78.374 E46.13855
G1 X52.855 Y77.634 E46.23324
G1 X53.203 Y76.925 E46.32802
G1 X53.621 Y76.254 E46.42289
G1 X54.104 Y75.63 E46.51758
G1 X54.647 Y75.057 E46.61231
G1 X55.246 Y74.542 E46.7071
G0 F3600 X55.635 Y74.75
G1 F1800 X56.014 Y74.489 E46.76232
G1 X56.197 Y74.371 E46.78845
G1 X56.864 Y73.988 E46.88075
G1 X57.567 Y73.677 E46.973
G1 X58.299 Y73.44 E47.06532
G1 X59.052 Y73.281 E47.15768
G1 X59.817 Y73.2 E47.24999
G1 X60.586 Y73.2 E47.34227
G1 X61.351 Y73.279 E47.43456
G1 X62.104 Y73.437 E47.52689
G1 X62.836 Y73.673 E47.61918
G1 X63.229 Y73.835 E47.67019
G1 X64.304 Y74.316 E47.81151
G1 X64.989 Y74.667 E47.90388
G1 X65.068 Y74.718 E47.91516
G1 X65.561 Y74.391 E47.98615
G1 X66.242 Y74.035 E48.07836
G1 X66.957 Y73.75 E48.17073
G1 X67.697 Y73.542 E48.26297
G1 X68.455 Y73.411 E48.35528
G1 X69.331 Y73.359 E48.46058
G1 X73.279 Y73.359 E48.93434
G1 X73.516 Y73.326 E48.96306
G1 X74.411 Y73.302 E49.0705
G1 X79.358 Y73.472 E49.66449
G1 X80.124 Y73.539 E49.75676
G1 X80.88 Y73.684 E49.84913
G1 X81.616 Y73.907 E49.94142
G1 X82.325 Y74.206 E50.03375
G1 X82.999 Y74.576 E50.12602
G1 X83.631 Y75.014 E50.21829
G1 X84.214 Y75.516 E50.31061
G1 X84.693 Y76.018 E50.39387
G1 X84.916 Y76.275 E50.43471
G1 X85.389 Y76.882 E50.52705
G1 X85.797 Y77.534 E50.61935
G1 X86.135 Y78.225 E50.71165
G1 X86.399 Y78.947 E50.8039
G1 X86.642 Y80.009 E50.93464
G1 X92.847 Y120.686 E55.87234
G1 X99.356 Y78 E61.05387
G1 X99.511 Y77.247 E61.14613
G1 X99.744 Y76.514 E61.23842
G1 X100.051 Y75.809 E61.3307
G1 X100.43 Y75.14 E61.42297
G1 X100.877 Y74.513 E61.51537
G1 X101.186 Y74.148 E61.57276
G1 X101.407 Y73.904 E61.61226
G1 X101.953 Y73.362 E61.70458
G1 X102.551 Y72.879 E61.79682
G1 X103.197 Y72.461 E61.88916
G1 X103.882 Y72.112 E61.98141
G1 X104.6 Y71.836 E62.07372
G1 X105.343 Y71.636 E62.16605
G1 X106.102 Y71.514 E62.2583
G1 X106.639 Y71.476 E62.3229
G1 X111.587 Y71.307 E62.91701
G1 X112.356 Y71.321 E63.0093
G1 X112.672 Y71.358 E63.04748
G1 X116.676 Y71.359 E63.52796
G1 X117.444 Y71.399 E63.62025
G1 X118.204 Y71.519 E63.71258
G1 X118.947 Y71.717 E63.80485
G1 X119.666 Y71.991 E63.89718
G1 X120.352 Y72.338 E63.98943
G1 X120.943 Y72.718 E64.07375
G1 X121.321 Y72.497 E64.12629
G1 X121.696 Y72.316 E64.17626
G1 X122.771 Y71.835 E64.31758
G1 X123.488 Y71.558 E64.40982
G1 X124.23 Y71.357 E64.50207
G1 X124.99 Y71.234 E64.59446
G1 X125.758 Y71.19 E64.68677
G1 X126.526 Y71.226 E64.77903
G1 X127.286 Y71.342 E64.87129
G1 X128.031 Y71.536 E64.96367
G1 X128.751 Y71.807 E65.05599
G1 X129.439 Y72.15 E65.14824
G1 X129.803 Y72.371 E65.19934
G1 X129.986 Y72.489 E65.22547
G1 X130.61 Y72.939 E65.31779
G1 X131.184 Y73.451 E65.41009
G1 X131.701 Y74.02 E65.50234
G1 X132.157 Y74.639 E65.5946
G1 X132.546 Y75.303 E65.68695
G1 X132.864 Y76.003 E65.77921
G1 X133.108 Y76.733 E65.87157
G1 X133.274 Y77.484 E65.96387
G1 X133.362 Y78.248 E66.05616
G1 X133.376 Y78.708 E66.11138
G1 X133.376 Y144.271 E73.97894
G1 X133.336 Y145.039 E74.07123
G1 X133.217 Y145.799 E74.16354
G1 X133.019 Y146.542 E74.25581
G1 X132.745 Y147.261 E74.34814
G1 X132.398 Y147.947 E74.44039
G1 X131.982 Y148.594 E74.5327
G1 X131.501 Y149.194 E74.62498
G1 X130.96 Y149.741 E74.7173
G1 X130.365 Y150.229 E74.80964
G1 X129.812 Y150.599 E74.88949
G1 X129.619 Y150.716 E74.91657
G1 X128.942 Y151.08 E75.00881
G1 X128.23 Y151.372 E75.10115
G1 X127.492 Y151.588 E75.19343
G1 X126.735 Y151.726 E75.28577
G1 X125.968 Y151.786 E75.37809
G1 X125.199 Y151.765 E75.4704
G1 X124.437 Y151.665 E75.56263
G1 X123.689 Y151.485 E75.65495
G1 X122.963 Y151.23 E75.74729
G1 X122.304 Y150.919 E75.83473
G1 X120.986 Y150.217 E76.01392
G1 X120.739 Y150.069 E76.04848
G1 X120.166 Y150.444 E76.13065
G1 X119.482 Y150.796 E76.22297
G1 X118.766 Y151.075 E76.31518
G1 X118.024 Y151.278 E76.40749
G1 X117.265 Y151.403 E76.4998
G1 X116.378 Y151.449 E76.60638
G1 X112.626 Y151.417 E77.05664
G1 X112.576 Y151.426 E77.06273
G1 X111.809 Y151.489 E77.15508
G1 X111.4 Y151.49 E77.20416
G1 X107.713 Y151.397 E77.64674
G1 X107.168 Y151.363 E77.71227
G1 X106.731 Y151.32 E77.76496
G1 X106.579 Y151.341 E77.78338
G1 X105.74 Y151.368 E77.88411
G1 X101.926 Y151.271 E78.34194
G1 X101.439 Y151.322 E78.4007
G1 X100.866 Y151.33 E78.46946
G1 X99.937 Y151.307 E78.58098
G1 X99.177 Y151.39 E78.67272
G1 X98.566 Y151.401 E78.74605
G1 X96.925 Y151.361 E78.94303
G1 X96.158 Y151.302 E79.03534
G1 X95.401 Y151.164 E79.12768
G1 X94.663 Y150.948 E79.21995
G1 X94.436 Y150.855 E79.24939
G1 X94.068 Y151.251 E79.31426
G1 X93.488 Y151.756 E79.40655
G1 X92.858 Y152.199 E79.49897
G1 X92.187 Y152.573 E79.59115
G1 X91.48 Y152.876 E79.68345
G1 X90.745 Y153.104 E79.7758
G1 X89.991 Y153.255 E79.86808
G1 X89.111 Y153.33 E79.97406
G1 X87.341 Y153.375 E80.18653
G1 X86.572 Y153.354 E80.27884
G1 X86.15 Y153.305 E80.32982
G1 X85.217 Y153.329 E80.44182
G1 X84.448 Y153.31 E80.53413
G1 X84.087 Y153.267 E80.57775
G1 X80.344 Y153.364 E81.02706
G1 X79.575 Y153.343 E81.11938
G1 X79.508 Y153.334 E81.12749
G1 X78.77 Y153.397 E81.21637
G1 X74.488 Y153.491 E81.73034
G1 X73.72 Y153.468 E81.82254
G1 X73.332 Y153.416 E81.86951
G1 X69.598 Y153.43 E82.3176
G1 X68.83 Y153.393 E82.40986
G1 X68.07 Y153.276 E82.50214
G1 X67.326 Y153.081 E82.59443
G1 X66.606 Y152.81 E82.68675
G1 X65.918 Y152.466 E82.77906
G1 X65.277 Y152.057 E82.8703
G1 X65.014 Y152.217 E82.90724
G1 X63.696 Y152.919 E83.08644
G1 X62.999 Y153.245 E83.17877
G1 X62.272 Y153.497 E83.27111
G1 X61.523 Y153.672 E83.36341
G1 X60.76 Y153.768 E83.45569
G1 X59.991 Y153.785 E83.54799
G1 X59.225 Y153.721 E83.64023
G1 X58.469 Y153.579 E83.73254
G1 X57.732 Y153.358 E83.82487
G1 X57.022 Y153.063 E83.91713
G1 X56.381 Y152.716 E84.0046
G1 X56.188 Y152.599 E84.03168
G1 X55.552 Y152.167 E84.12394
G1 X54.964 Y151.671 E84.21625
G1 X54.431 Y151.116 E84.30859
G1 X53.958 Y150.509 E84.40094
G1 X53.551 Y149.857 E84.49317
G1 X53.214 Y149.166 E84.58543
G1 X52.95 Y148.443 E84.67779
G1 X52.763 Y147.697 E84.77008
G1 X52.654 Y146.936 E84.86233
G1 X52.624 Y146.271 E84.94221
G1 X52.624 Y80.708 E92.80977
G1 X52.664 Y79.94 E92.90206
G1 X52.783 Y79.18 E92.99437
G1 X52.981 Y78.437 E93.08664
G1 X53.255 Y77.718 E93.17897
G1 X53.602 Y77.032 E93.27122
G1 X54.018 Y76.385 E93.36353
G1 X54.499 Y75.785 E93.45581
G1 X55.04 Y75.238 E93.54813
G1 X55.635 Y74.75 E93.64047
G0 F3600 X55.432 Y75.424
G1 F1800 X56.231 Y74.825 E93.7603
G1 X56.414 Y74.707 E93.78643
G1 X57.063 Y74.336 E93.87614
G1 X57.748 Y74.036 E93.96588
G1 X58.462 Y73.811 E94.05571
G1 X59.195 Y73.664 E94.14542
G1 X59.94 Y73.595 E94.2352
G1 X60.688 Y73.607 E94.32498
G1 X61.431 Y73.698 E94.4148
G1 X62.159 Y73.868 E94.50451
G1 X63.066 Y74.2 E94.62042
G1 X64.141 Y74.681 E94.76174
G1 X64.806 Y75.023 E94.85147
G1 X65.084 Y75.206 E94.89141
G1 X65.308 Y75.03 E94.9256
G1 X65.943 Y74.634 E95.0154
G1 X66.616 Y74.307 E95.10519
G1 X67.32 Y74.054 E95.19496
G1 X68.047 Y73.878 E95.28472
G1 X68.788 Y73.78 E95.37441
G1 X69.331 Y73.759 E95.43962
G1 X73.309 Y73.759 E95.91698
G1 X73.571 Y73.723 E95.94872
G1 X74.397 Y73.702 E96.04787
G1 X79.344 Y73.872 E96.64186
G1 X80.09 Y73.938 E96.73173
G1 X80.824 Y74.082 E96.82149
G1 X81.538 Y74.305 E96.91125
G1 X82.224 Y74.602 E97.00095
G1 X82.875 Y74.971 E97.09075
G1 X83.483 Y75.407 E97.18053
G1 X84.041 Y75.905 E97.27028
G1 X84.391 Y76.28 E97.33184
G1 X84.614 Y76.537 E97.37267
G1 X85.073 Y77.128 E97.46246
G1 X85.467 Y77.764 E97.55224
G1 X85.791 Y78.438 E97.64198
G1 X86.041 Y79.143 E97.73174
G1 X86.247 Y80.069 E97.84558
G1 X92.847 Y123.337 E103.0978
G1 X99.751 Y78.061 E108.59372
G1 X99.903 Y77.328 E108.68355
G1 X100.133 Y76.616 E108.77334
G1 X100.437 Y75.933 E108.86305
G1 X100.812 Y75.286 E108.95279
G1 X101.483 Y74.417 E109.08454
G1 X101.704 Y74.173 E109.12404
G1 X102.235 Y73.646 E109.21382
G1 X102.819 Y73.179 E109.30355
G1 X103.45 Y72.777 E109.39333
G1 X104.12 Y72.444 E109.48311
G1 X104.822 Y72.185 E109.5729
G1 X105.547 Y72.002 E109.66263
G1 X106.653 Y71.876 E109.79621
G1 X111.601 Y71.707 E110.39032
G1 X112.349 Y71.722 E110.4801
G1 X112.653 Y71.758 E110.51683
G1 X116.676 Y71.759 E110.99959
G1 X117.423 Y71.799 E111.08936
G1 X118.161 Y71.919 E111.17908
G1 X118.882 Y72.116 E111.26877
G1 X119.579 Y72.39 E111.35864
G1 X120.242 Y72.736 E111.44839
G1 X120.864 Y73.152 E111.53818
G1 X120.916 Y73.196 E111.54636
G1 X120.945 Y73.175 E111.55065
G1 X121.859 Y72.681 E111.67533
G1 X122.934 Y72.2 E111.81665
G1 X123.632 Y71.932 E111.90637
G1 X124.355 Y71.739 E111.99617
G1 X125.094 Y71.625 E112.0859
G1 X125.842 Y71.59 E112.17576
G1 X126.588 Y71.635 E112.26544
G1 X127.326 Y71.76 E112.35526
G1 X128.046 Y71.962 E112.445
G1 X128.74 Y72.241 E112.53476
G1 X129.586 Y72.707 E112.65066
G1 X129.769 Y72.825 E112.67679
G1 X130.376 Y73.263 E112.76661
G1 X130.931 Y73.764 E112.85633
G1 X131.431 Y74.321 E112.94615
G1 X131.868 Y74.928 E113.03591
G1 X132.237 Y75.578 E113.1256
G1 X132.536 Y76.265 E113.21551
G1 X132.759 Y76.978 E113.30515
G1 X132.905 Y77.712 E113.39496
G1 X132.976 Y78.708 E113.51478
G1 X132.976 Y144.271 E121.38234
G1 X132.936 Y145.018 E121.47211
G1 X132.817 Y145.756 E121.56182
G1 X132.619 Y146.478 E121.65166
G1 X132.346 Y147.174 E121.74137
G1 X131.999 Y147.837 E121.83117
G1 X131.584 Y148.46 E121.921
G1 X131.105 Y149.034 E122.01071
G1 X130.568 Y149.555 E122.10049
G1 X129.978 Y150.014 E122.1902
G1 X129.605 Y150.257 E122.24362
G1 X129.412 Y150.374 E122.2707
G1 X128.752 Y150.727 E122.36052
G1 X128.059 Y151.008 E122.45025
G1 X127.339 Y151.213 E122.54009
G1 X126.602 Y151.34 E122.62983
G1 X125.856 Y151.388 E122.71954
G1 X125.108 Y151.355 E122.80938
G1 X124.369 Y151.244 E122.89906
G1 X123.645 Y151.054 E122.98888
G1 X122.946 Y150.787 E123.07867
G1 X122.492 Y150.566 E123.13926
G1 X121.174 Y149.864 E123.31846
G1 X120.711 Y149.585 E123.38333
G1 X120.423 Y149.807 E123.42696
G1 X119.786 Y150.199 E123.51672
G1 X119.111 Y150.52 E123.60641
G1 X118.405 Y150.768 E123.6962
G1 X117.677 Y150.939 E123.78594
G1 X116.934 Y151.032 E123.8758
G1 X116.382 Y151.049 E123.94207
G1 X112.587 Y151.016 E124.39748
G1 X112.502 Y151.032 E124.40786
G1 X111.41 Y151.09 E124.53909
G1 X107.723 Y150.997 E124.98167
G1 X107.207 Y150.965 E125.04371
G1 X106.719 Y150.917 E125.10255
G1 X106.503 Y150.946 E125.1287
