;FLAVOR:UltiGCode
;TIME:2923
;MATERIAL:7628
;MATERIAL2:0
;NOZZLE_DIAMETER:0.4
;Generated with Cura_SteamEngine 3.1.0
M82 ; absolute extrusion mode

;LAYER_COUNT:330
;LAYER:0
M107
G0 F3600 X90.536 Y98.18 Z0.3
;TYPE:SKIRT
G1 F1800 X93.95 Y95.293 E0.53652
G1 X94.578 Y94.814 E0.6313
G1 X95.223 Y94.417 E0.72219
G1 X99.118 Y92.271 E1.25584
G1 X99.828 Y91.926 E1.35056
G1 X100.573 Y91.653 E1.44578
G1 X104.764 Y90.354 E1.9723
G1 X105.529 Y90.158 E2.06706
G1 X106.31 Y90.041 E2.16183
G1 X107.074 Y90.004 E2.25362
G1 X115.929 Y90.005 E3.31622
G1 X116.718 Y90.045 E3.41102
G1 X117.498 Y90.165 E3.50572
G1 X118.241 Y90.356 E3.59778
G1 X122.428 Y91.656 E4.12388
G1 X123.169 Y91.928 E4.2186
G1 X123.877 Y92.272 E4.31306
G1 X127.776 Y94.419 E4.84719
G1 X128.448 Y94.835 E4.94203
G1 X129.05 Y95.296 E5.03301
G1 X132.462 Y98.181 E5.5692
G1 X133.039 Y98.721 E5.66403
G1 X133.527 Y99.277 E5.75281
G1 X136.326 Y102.791 E6.29191
G1 X136.786 Y103.433 E6.38668
G1 X137.15 Y104.062 E6.47389
G1 X139.234 Y108.083 E7.01737
G1 X139.562 Y108.801 E7.11209
G1 X139.791 Y109.467 E7.1966
G1 X141.073 Y113.817 E7.7408
G1 X141.257 Y114.585 E7.83557
G1 X141.384 Y115.683 E7.96821
G1 X141.724 Y123.504 E8.90761
G1 X141.915 Y124.161 E8.98972
G1 X142.058 Y124.937 E9.0844
G1 X142.117 Y125.627 E9.16751
G1 X142.124 Y125.795 E9.18768
G1 X142.117 Y126.585 E9.28249
G1 X142.03 Y127.37 E9.37726
G1 X141.864 Y128.142 E9.47202
G1 X141.621 Y128.893 E9.56674
G1 X141.304 Y129.616 E9.66148
G1 X140.914 Y130.303 E9.75627
G1 X140.458 Y130.947 E9.85096
G1 X139.938 Y131.542 E9.94579
G1 X139.361 Y132.081 E10.04054
G1 X138.733 Y132.559 E10.13525
G1 X138.059 Y132.971 E10.23004
G1 X137.347 Y133.313 E10.32483
G1 X136.604 Y133.581 E10.41961
G1 X135.838 Y133.773 E10.51437
G1 X134.736 Y133.909 E10.64762
G1 X133.735 Y133.961 E10.7679
G1 X132.945 Y133.962 E10.8627
G1 X132.159 Y133.884 E10.95748
G1 X131.385 Y133.726 E11.05228
G1 X130.632 Y133.49 E11.14697
G1 X129.906 Y133.18 E11.2417
G1 X129.214 Y132.798 E11.33655
G1 X128.566 Y132.348 E11.43122
G1 X128.205 Y132.052 E11.48724
G1 X127.948 Y131.828 E11.52815
G1 X127.38 Y131.28 E11.62286
G1 X126.87 Y130.677 E11.71764
G1 X126.589 Y130.267 E11.77728
G1 X125.967 Y130.037 E11.85686
G1 X125.257 Y129.69 E11.95169
G1 X124.587 Y129.273 E12.04639
G1 X123.962 Y128.79 E12.14118
G1 X123.522 Y128.382 E12.21318
G1 X123.288 Y128.148 E12.2529
G1 X122.758 Y127.562 E12.34771
G1 X122.291 Y126.926 E12.4424
G1 X121.89 Y126.246 E12.53713
G1 X121.56 Y125.528 E12.63195
G1 X121.305 Y124.781 E12.72667
G1 X121.126 Y124.012 E12.82142
G1 X121.026 Y123.228 E12.91626
G1 X121.003 Y122.633 E12.98771
G1 X121.003 Y118.48 E13.48607
G1 X121.043 Y117.691 E13.58087
G1 X121.162 Y116.911 E13.67556
G1 X121.36 Y116.146 E13.77038
G1 X121.634 Y115.406 E13.86507
G1 X121.982 Y114.697 E13.95985
G1 X122.4 Y114.026 E14.05472
G1 X122.883 Y113.402 E14.14941
G1 X123.18 Y113.081 E14.20189
G1 X122.856 Y112.457 E14.28626
G1 X121.124 Y110.28 E14.62009
G1 X119.039 Y108.517 E14.94774
G1 X116.692 Y107.224 E15.2693
G1 X114.556 Y106.567 E15.53747
G1 X111.498 Y106.525 E15.90446
G1 X108.442 Y106.567 E16.27122
G1 X106.307 Y107.223 E16.53924
G1 X103.96 Y108.516 E16.86079
G1 X101.873 Y110.281 E17.18878
G1 X100.143 Y112.455 E17.52218
G1 X99.818 Y113.082 E17.60693
G1 X100.242 Y113.551 E17.6828
G1 X100.709 Y114.187 E17.77749
G1 X101.11 Y114.867 E17.87222
G1 X101.44 Y115.585 E17.96704
G1 X101.695 Y116.332 E18.06176
G1 X101.874 Y117.101 E18.15651
G1 X101.974 Y117.885 E18.25135
G1 X101.997 Y118.48 E18.3228
G1 X101.997 Y122.633 E18.82116
G1 X101.957 Y123.422 E18.91597
G1 X101.838 Y124.202 E19.01065
G1 X101.64 Y124.967 E19.10547
G1 X101.366 Y125.707 E19.20016
G1 X101.018 Y126.416 E19.29494
G1 X100.6 Y127.087 E19.38981
G1 X100.117 Y127.711 E19.4845
G1 X99.712 Y128.148 E19.556
G1 X99.478 Y128.382 E19.59571
G1 X98.892 Y128.912 E19.69052
G1 X98.256 Y129.379 E19.78521
G1 X97.576 Y129.78 E19.87994
G1 X96.858 Y130.11 E19.97476
G1 X96.413 Y130.262 E20.03119
G1 X96.134 Y130.67 E20.0905
G1 X95.625 Y131.274 E20.18529
G1 X95.075 Y131.807 E20.2772
G1 X94.82 Y132.031 E20.31793
G1 X94.201 Y132.522 E20.41274
G1 X93.535 Y132.947 E20.50754
G1 X92.831 Y133.303 E20.60221
G1 X92.093 Y133.586 E20.69706
G1 X91.331 Y133.793 E20.79181
G1 X90.552 Y133.921 E20.88654
G1 X89.764 Y133.97 E20.98129
G1 X89.291 Y133.962 E21.03806
G1 X88.288 Y133.913 E21.15856
G1 X87.503 Y133.834 E21.25324
G1 X86.729 Y133.677 E21.34801
G1 X85.975 Y133.442 E21.44278
G1 X85.249 Y133.132 E21.53751
G1 X84.557 Y132.75 E21.63236
G1 X83.908 Y132.301 E21.72706
G1 X83.308 Y131.787 E21.82187
G1 X82.762 Y131.216 E21.91667
G1 X82.278 Y130.593 E22.01134
G1 X81.858 Y129.924 E22.10613
G1 X81.509 Y129.216 E22.20085
G1 X81.233 Y128.476 E22.29563
G1 X81.033 Y127.712 E22.3904
G1 X80.911 Y126.932 E22.48514
G1 X80.876 Y125.801 E22.62092
G1 X80.883 Y125.631 E22.64134
G1 X80.955 Y124.845 E22.73605
G1 X81.107 Y124.07 E22.83083
G1 X81.275 Y123.516 E22.9003
G1 X81.615 Y115.683 E23.84114
G1 X81.689 Y114.896 E23.936
G1 X81.926 Y113.816 E24.06868
G1 X83.208 Y109.466 E24.61288
G1 X83.469 Y108.721 E24.70761
G1 X83.765 Y108.082 E24.79211
G1 X85.847 Y104.064 E25.33516
G1 X86.245 Y103.383 E25.42981
G1 X86.671 Y102.794 E25.51704
G1 X89.472 Y99.277 E26.05657
G1 X89.994 Y98.685 E26.15129
G1 X90.536 Y98.18 E26.24018
G0 F3600 X90.795 Y98.485
G1 F1800 X94.209 Y95.598 E26.77671
G1 X94.821 Y95.133 E26.86894
G1 X95.416 Y94.768 E26.9527
G1 X99.311 Y92.622 E27.48635
G1 X100.003 Y92.286 E27.57866
G1 X100.691 Y92.035 E27.66654
G1 X104.882 Y90.736 E28.19307
G1 X105.628 Y90.547 E28.28542
G1 X106.389 Y90.436 E28.3777
G1 X107.074 Y90.404 E28.45999
G1 X115.929 Y90.405 E29.52259
G1 X116.697 Y90.445 E29.61488
G1 X117.457 Y90.565 E29.70721
G1 X118.122 Y90.738 E29.78966
G1 X122.309 Y92.038 E30.31576
G1 X123.031 Y92.304 E30.4081
G1 X123.684 Y92.623 E30.49531
G1 X127.583 Y94.77 E31.02943
G1 X128.237 Y95.175 E31.12174
G1 X128.792 Y95.601 E31.2057
G1 X132.204 Y98.486 E31.74189
G1 X132.765 Y99.013 E31.83425
G1 X133.214 Y99.527 E31.91615
G1 X136.013 Y103.041 E32.45525
G1 X136.461 Y103.666 E32.54753
G1 X136.795 Y104.246 E32.62784
G1 X138.879 Y108.267 E33.17132
G1 X139.197 Y108.967 E33.26358
G1 X139.407 Y109.58 E33.34134
G1 X140.689 Y113.93 E33.88553
G1 X140.868 Y114.678 E33.97783
G1 X140.984 Y115.7 E34.10126
G1 X141.327 Y123.586 E35.04847
G1 X141.398 Y123.78 E35.07326
G1 X141.585 Y124.526 E35.16555
G1 X141.718 Y125.644 E35.30066
G1 X141.725 Y125.812 E35.32083
G1 X141.717 Y126.581 E35.41312
G1 X141.629 Y127.345 E35.50541
G1 X141.462 Y128.096 E35.59773
G1 X141.219 Y128.826 E35.69005
G1 X140.901 Y129.526 E35.78231
G1 X140.512 Y130.189 E35.87456
G1 X140.056 Y130.809 E35.96691
G1 X139.538 Y131.378 E36.05925
G1 X138.964 Y131.89 E36.15155
G1 X138.34 Y132.34 E36.24387
G1 X137.673 Y132.722 E36.33611
G1 X136.97 Y133.034 E36.4284
G1 X136.238 Y133.27 E36.52069
G1 X135.485 Y133.429 E36.61305
G1 X134.715 Y133.51 E36.70596
G1 X133.714 Y133.562 E36.82624
G1 X132.945 Y133.562 E36.91852
G1 X132.18 Y133.482 E37.01082
G1 X131.427 Y133.323 E37.10317
G1 X130.695 Y133.087 E37.19546
G1 X129.992 Y132.776 E37.28771
G1 X129.324 Y132.394 E37.38005
G1 X128.468 Y131.75 E37.5086
G1 X128.211 Y131.526 E37.54951
G1 X127.658 Y130.992 E37.64176
G1 X127.164 Y130.402 E37.7341
G1 X126.845 Y129.931 E37.80236
G1 X126.77 Y129.911 E37.81167
G1 X126.051 Y129.638 E37.90396
G1 X125.364 Y129.291 E37.99632
G1 X124.717 Y128.875 E38.08863
G1 X124.117 Y128.394 E38.18091
G1 X123.804 Y128.1 E38.23244
G1 X123.57 Y127.866 E38.27215
G1 X123.056 Y127.294 E38.36443
G1 X122.603 Y126.672 E38.45677
G1 X122.217 Y126.007 E38.54904
G1 X121.902 Y125.305 E38.64137
G1 X121.662 Y124.574 E38.7337
G1 X121.499 Y123.823 E38.82591
G1 X121.415 Y123.058 E38.91827
G1 X121.403 Y122.633 E38.96929
G1 X121.403 Y118.48 E39.46765
G1 X121.443 Y117.712 E39.55993
G1 X121.562 Y116.952 E39.65224
G1 X121.76 Y116.209 E39.74451
G1 X122.034 Y115.49 E39.83685
G1 X122.381 Y114.804 E39.9291
G1 X122.797 Y114.157 E40.0214
G1 X123.278 Y113.557 E40.11368
G1 X123.57 Y113.247 E40.16479
G1 X123.667 Y113.15 E40.18125
G1 X123.193 Y112.237 E40.30469
G1 X121.416 Y110.004 E40.64715
G1 X119.266 Y108.186 E40.98502
G1 X116.849 Y106.854 E41.31619
G1 X114.618 Y106.168 E41.59628
G1 X111.498 Y106.124 E41.97071
G1 X108.38 Y106.167 E42.34491
G1 X106.15 Y106.853 E42.62488
G1 X103.733 Y108.185 E42.95605
G1 X101.583 Y110.003 E43.29392
G1 X99.806 Y112.236 E43.63638
G1 X99.332 Y113.149 E43.75982
G1 X99.43 Y113.247 E43.77645
G1 X99.944 Y113.819 E43.86874
G1 X100.397 Y114.441 E43.96107
G1 X100.783 Y115.106 E44.05334
G1 X101.098 Y115.808 E44.14567
G1 X101.338 Y116.539 E44.238
G1 X101.501 Y117.29 E44.33022
G1 X101.585 Y118.055 E44.42257
G1 X101.597 Y118.48 E44.47359
G1 X101.597 Y122.633 E44.97195
G1 X101.557 Y123.401 E45.06424
G1 X101.438 Y124.161 E45.15655
G1 X101.24 Y124.904 E45.24882
G1 X100.966 Y125.623 E45.34115
G1 X100.619 Y126.309 E45.4334
G1 X100.203 Y126.956 E45.52571
G1 X99.722 Y127.556 E45.61799
G1 X99.43 Y127.866 E45.66909
G1 X99.196 Y128.1 E45.7088
G1 X98.624 Y128.614 E45.80108
G1 X98.002 Y129.067 E45.89342
G1 X97.337 Y129.453 E45.98569
G1 X96.635 Y129.768 E46.07802
G1 X96.167 Y129.922 E46.13714
G1 X95.743 Y130.523 E46.22541
G1 X95.236 Y131.102 E46.31776
G1 X94.811 Y131.507 E46.38821
G1 X94.556 Y131.731 E46.42894
G1 X93.952 Y132.207 E46.52122
G1 X93.303 Y132.619 E46.61347
G1 X92.614 Y132.961 E46.70577
G1 X91.893 Y133.23 E46.79812
G1 X91.148 Y133.422 E46.89044
G1 X90.388 Y133.536 E46.98266
G1 X89.311 Y133.562 E47.11194
G1 X88.308 Y133.513 E47.23244
G1 X87.543 Y133.436 E47.3247
G1 X86.79 Y133.279 E47.41701
G1 X86.057 Y133.046 E47.5093
G1 X85.352 Y132.737 E47.60167
G1 X84.684 Y132.357 E47.6939
G1 X84.058 Y131.91 E47.7862
G1 X83.482 Y131.4 E47.87852
G1 X82.962 Y130.833 E47.97084
G1 X82.504 Y130.215 E48.06315
G1 X82.112 Y129.553 E48.15547
G1 X81.792 Y128.854 E48.24772
G1 X81.545 Y128.125 E48.34009
G1 X81.376 Y127.375 E48.43234
G1 X81.285 Y126.611 E48.52467
G1 X81.275 Y125.818 E48.61984
G1 X81.282 Y125.648 E48.64026
G1 X81.354 Y124.882 E48.73258
G1 X81.504 Y124.127 E48.82495
G1 X81.673 Y123.587 E48.89285
G1 X82.015 Y115.7 E49.84018
G1 X82.088 Y114.934 E49.93252
G1 X82.31 Y113.929 E50.05603
G1 X83.592 Y109.579 E50.60022
G1 X83.847 Y108.854 E50.69245
G1 X84.12 Y108.266 E50.77024
G1 X86.202 Y104.248 E51.31329
G1 X86.591 Y103.585 E51.40553
G1 X86.983 Y103.043 E51.4858
G1 X89.784 Y99.526 E52.02533
G1 X90.294 Y98.95 E52.11765
G1 X90.795 Y98.485 E52.19967
G0 F3600 X91.053 Y98.791
G1 F1800 X94.467 Y95.904 E52.7362
G1 X95.063 Y95.452 E52.82596
G1 X95.609 Y95.118 E52.90277
G1 X99.504 Y92.972 E53.43641
G1 X100.178 Y92.647 E53.52621
G1 X100.81 Y92.417 E53.60691
G1 X105.001 Y91.118 E54.13344
G1 X105.726 Y90.935 E54.22316
G1 X106.467 Y90.83 E54.31297
G1 X107.074 Y90.804 E54.38588
G1 X115.929 Y90.805 E55.44848
G1 X116.676 Y90.845 E55.53825
G1 X117.414 Y90.965 E55.62797
G1 X118.004 Y91.12 E55.70117
G1 X122.191 Y92.42 E56.22727
G1 X122.892 Y92.679 E56.31695
G1 X123.492 Y92.973 E56.39713
G1 X127.391 Y95.12 E56.93126
G1 X128.026 Y95.516 E57.02106
G1 X128.534 Y95.907 E57.09799
G1 X131.946 Y98.792 E57.63417
G1 X132.49 Y99.305 E57.7239
G1 X132.901 Y99.776 E57.79891
G1 X135.7 Y103.29 E58.33801
G1 X136.134 Y103.899 E58.42775
G1 X136.44 Y104.43 E58.5013
G1 X138.524 Y108.451 E59.04477
G1 X138.832 Y109.133 E59.13457
G1 X139.023 Y109.693 E59.20557
G1 X140.305 Y114.043 E59.74977
G1 X140.478 Y114.771 E59.83956
G1 X140.584 Y115.718 E59.95391
G1 X140.93 Y123.661 E60.90797
G1 X141.089 Y124.154 E60.97013
G1 X141.242 Y124.886 E61.05987
G1 X141.318 Y125.661 E61.15332
G1 X141.325 Y125.829 E61.1735
G1 X141.316 Y126.577 E61.26326
G1 X141.227 Y127.319 E61.35294
G1 X141.06 Y128.048 E61.44269
G1 X140.816 Y128.756 E61.53255
G1 X140.498 Y129.433 E61.62231
G1 X140.109 Y130.072 E61.71208
G1 X139.654 Y130.666 E61.80187
G1 X139.139 Y131.208 E61.89159
G1 X138.568 Y131.692 E61.98141
G1 X137.95 Y132.112 E62.07107
G1 X137.289 Y132.464 E62.16094
G1 X136.596 Y132.744 E62.25063
G1 X135.876 Y132.947 E62.3404
G1 X135.138 Y133.073 E62.43024
G1 X134.694 Y133.111 E62.48372
G1 X133.693 Y133.163 E62.604
G1 X132.945 Y133.161 E62.69376
G1 X132.201 Y133.08 E62.78357
G1 X131.471 Y132.921 E62.87322
G1 X130.761 Y132.684 E62.96304
G1 X130.081 Y132.372 E63.05282
G1 X129.438 Y131.99 E63.14257
G1 X128.731 Y131.449 E63.2494
G1 X128.474 Y131.225 E63.29031
G1 X127.937 Y130.704 E63.38009
G1 X127.459 Y130.129 E63.46982
G1 X127.096 Y129.583 E63.5485
G1 X126.834 Y129.511 E63.58111
G1 X126.137 Y129.238 E63.67093
G1 X125.474 Y128.892 E63.76068
G1 X124.851 Y128.478 E63.85044
G1 X124.087 Y127.817 E63.97167
G1 X123.853 Y127.583 E64.01138
G1 X123.353 Y127.026 E64.1012
G1 X122.916 Y126.42 E64.19085
G1 X122.545 Y125.77 E64.28067
G1 X122.246 Y125.084 E64.37047
G1 X122.022 Y124.37 E64.46026
G1 X121.875 Y123.637 E64.54997
G1 X121.803 Y122.633 E64.67076
G1 X121.803 Y118.48 E65.16912
G1 X121.843 Y117.733 E65.25889
G1 X121.962 Y116.995 E65.3486
G1 X122.16 Y116.273 E65.43844
G1 X122.433 Y115.577 E65.52815
G1 X122.78 Y114.914 E65.61795
G1 X123.195 Y114.291 E65.70778
G1 X123.853 Y113.53 E65.8285
G1 X124.096 Y113.287 E65.86974
G1 X124.159 Y113.23 E65.87993
G1 X123.53 Y112.018 E66.04379
G1 X121.703 Y109.723 E66.3958
G1 X119.492 Y107.853 E66.74329
G1 X117.009 Y106.485 E67.08348
G1 X114.68 Y105.769 E67.37587
G1 X111.498 Y105.724 E67.75775
G1 X108.318 Y105.768 E68.13939
G1 X105.99 Y106.484 E68.43166
G1 X103.507 Y107.852 E68.77185
G1 X101.296 Y109.722 E69.11934
G1 X99.469 Y112.017 E69.47135
G1 X98.84 Y113.231 E69.63542
G1 X98.904 Y113.287 E69.64563
G1 X99.147 Y113.53 E69.68687
G1 X99.647 Y114.087 E69.77669
G1 X100.084 Y114.693 E69.86634
G1 X100.455 Y115.343 E69.95615
G1 X100.754 Y116.029 E70.04595
G1 X100.978 Y116.743 E70.13575
G1 X101.125 Y117.476 E70.22546
G1 X101.197 Y118.48 E70.34625
G1 X101.197 Y122.633 E70.84461
G1 X101.157 Y123.38 E70.93438
G1 X101.038 Y124.118 E71.02408
G1 X100.84 Y124.84 E71.11392
G1 X100.567 Y125.536 E71.20364
G1 X100.22 Y126.199 E71.29344
G1 X99.805 Y126.822 E71.38327
G1 X99.147 Y127.583 E71.50399
G1 X98.913 Y127.817 E71.5437
G1 X98.356 Y128.317 E71.63352
G1 X97.75 Y128.754 E71.72317
G1 X97.1 Y129.125 E71.81299
G1 X96.414 Y129.424 E71.90279
G1 X95.897 Y129.586 E71.9678
G1 X95.792 Y129.767 E71.99291
G1 X95.351 Y130.372 E72.08275
G1 X94.848 Y130.925 E72.17246
G1 X94.547 Y131.206 E72.22187
G1 X94.292 Y131.43 E72.2626
G1 X93.704 Y131.893 E72.35241
G1 X93.071 Y132.291 E72.44213
G1 X92.398 Y132.618 E72.53192
G1 X91.694 Y132.872 E72.62173
G1 X90.968 Y133.05 E72.71143
G1 X90.226 Y133.149 E72.80126
G1 X89.33 Y133.163 E72.9088
G1 X88.327 Y133.114 E73.0293
G1 X87.583 Y133.037 E73.11906
G1 X86.852 Y132.882 E73.20873
G1 X86.141 Y132.649 E73.29851
G1 X85.458 Y132.342 E73.38837
G1 X84.813 Y131.964 E73.47808
G1 X84.212 Y131.519 E73.56782
G1 X83.661 Y131.013 E73.65759
G1 X83.168 Y130.45 E73.74739
G1 X82.737 Y129.839 E73.83712
G1 X82.374 Y129.184 E73.92698
G1 X82.084 Y128.495 E74.01669
G1 X81.868 Y127.779 E74.10643
G1 X81.73 Y127.044 E74.19617
G1 X81.671 Y126.298 E74.28597
G1 X81.675 Y125.834 E74.34165
G1 X81.682 Y125.664 E74.36207
G1 X81.753 Y124.919 E74.45188
G1 X81.902 Y124.186 E74.54163
G1 X82.07 Y123.659 E74.60801
G1 X82.415 Y115.717 E75.56195
G1 X82.487 Y114.973 E75.65165
G1 X82.694 Y114.042 E75.76609
G1 X83.976 Y109.692 E76.31029
G1 X84.225 Y108.987 E76.40001
G1 X84.475 Y108.45 E76.47109
G1 X86.557 Y104.432 E77.01414
G1 X86.936 Y103.788 E77.10381
G1 X87.296 Y103.292 E77.17735
G1 X90.097 Y99.775 E77.71689
G1 X90.594 Y99.216 E77.80664
G1 X91.053 Y98.791 E77.88171
G0 F3600 X91.311 Y99.096
G1 F1800 X94.725 Y96.209 E78.41823
G1 X95.305 Y95.772 E78.50538
G1 X95.802 Y95.468 E78.57529
G1 X99.697 Y93.322 E79.10894
G1 X100.352 Y93.007 E79.19616
G1 X100.928 Y92.799 E79.26964
G1 X105.119 Y91.5 E79.79617
G1 X105.824 Y91.323 E79.88339
G1 X106.543 Y91.225 E79.97047
G1 X107.074 Y91.204 E80.03424
G1 X115.929 Y91.205 E81.09684
G1 X116.654 Y91.245 E81.18397
G1 X117.37 Y91.365 E81.27109
G1 X117.885 Y91.502 E81.33504
G1 X122.072 Y92.802 E81.86114
G1 X122.753 Y93.055 E81.94832
G1 X123.299 Y93.324 E82.02136
G1 X127.198 Y95.471 E82.55548
G1 X127.814 Y95.855 E82.64259
G1 X128.275 Y96.212 E82.71256
G1 X131.687 Y99.097 E83.24874
