;FLAVOR:UltiGCode
;TIME:5616
;MATERIAL:16523
;MATERIAL2:0
;NOZZLE_DIAMETER:0.4
;Generated with Cura_SteamEngine 3.1.0
M82 ; absolute extrusion mode

;LAYER_COUNT:116
;LAYER:0
M107
G0 F3600 X114.161 Y74.274 Z0.3
;TYPE:SKIRT
G1 F1800 X114.644 Y73.65 E0.09469
G1 X115.187 Y73.077 E0.18942
G1 X115.786 Y72.562 E0.28422
G1 X116.52 Y72.058 E0.39106
G1 X116.713 Y71.941 E0.41814
G1 X117.409 Y71.566 E0.51302
G1 X118.138 Y71.264 E0.6077
G1 X118.894 Y71.037 E0.70243
G1 X119.67 Y70.887 E0.79727
G1 X120.456 Y70.817 E0.89196
G1 X121.246 Y70.826 E0.98677
G1 X122.031 Y70.916 E1.08159
G1 X122.802 Y71.084 E1.17628
G1 X123.553 Y71.329 E1.27107
G1 X124.428 Y71.729 E1.38652
G1 X125.746 Y72.432 E1.56577
G1 X125.762 Y72.442 E1.56804
G1 X125.99 Y72.284 E1.60133
G1 X126.682 Y71.903 E1.69612
G1 X127.408 Y71.594 E1.7908
G1 X128.163 Y71.359 E1.88569
G1 X128.937 Y71.203 E1.98044
G1 X129.985 Y71.117 E2.10662
G1 X131.246 Y71.099 E2.25796
G1 X132.035 Y71.128 E2.3527
G1 X132.273 Y71.164 E2.38159
G1 X134.241 Y71.163 E2.61775
G1 X134.604 Y71.119 E2.66162
G1 X135.394 Y71.104 E2.75644
G1 X136.37 Y71.197 E2.87409
G1 X136.461 Y71.211 E2.88514
G1 X138.884 Y71.177 E3.17593
G1 X139.673 Y71.206 E3.27067
G1 X140.151 Y71.264 E3.32845
G1 X140.917 Y71.201 E3.42068
G1 X141.388 Y71.2 E3.4772
G1 X144.521 Y71.288 E3.85331
G1 X144.748 Y71.242 E3.88111
G1 X145.534 Y71.164 E3.97589
G1 X146.092 Y71.157 E4.04285
G1 X149.636 Y71.24 E4.46825
G1 X150.423 Y71.299 E4.56296
G1 X151.201 Y71.436 E4.65775
G1 X151.96 Y71.652 E4.75245
G1 X152.694 Y71.943 E4.8472
G1 X153.395 Y72.307 E4.94198
G1 X154.055 Y72.741 E5.03677
G1 X154.669 Y73.238 E5.13157
G1 X155.228 Y73.795 E5.22626
G1 X155.494 Y74.104 E5.27519
G1 X155.748 Y74.415 E5.32337
G1 X156.216 Y75.051 E5.41813
G1 X156.617 Y75.731 E5.51286
G1 X156.948 Y76.449 E5.60774
G1 X157.204 Y77.196 E5.70249
G1 X157.383 Y77.965 E5.79724
G1 X157.484 Y78.748 E5.89198
G1 X157.505 Y79.537 E5.98669
G1 X157.418 Y80.525 E6.10571
G1 X151.142 Y121.681 E11.10152
G1 X150.983 Y122.454 E11.19623
G1 X150.878 Y122.791 E11.23858
G1 X150.779 Y124.063 E11.39168
G1 X150.712 Y124.638 E11.46115
G1 X147.573 Y145.152 E13.95148
G1 X147.414 Y145.925 E14.04619
G1 X147.178 Y146.679 E14.14099
G1 X146.867 Y147.405 E14.23577
G1 X146.484 Y148.095 E14.33047
G1 X146.033 Y148.744 E14.42531
G1 X145.261 Y149.602 E14.56381
G1 X145.067 Y149.788 E14.59606
G1 X144.47 Y150.305 E14.69083
G1 X143.824 Y150.759 E14.78558
G1 X143.135 Y151.145 E14.88035
G1 X142.411 Y151.46 E14.9751
G1 X141.659 Y151.7 E15.06982
G1 X140.591 Y151.903 E15.20028
G1 X139.835 Y151.993 E15.29164
G1 X138.833 Y152.048 E15.41206
G1 X136.231 Y152.021 E15.72432
G1 X135.991 Y152.05 E15.75333
G1 X134.97 Y152.104 E15.87602
G1 X131.423 Y152.062 E16.30169
G1 X130.348 Y152.129 E16.43094
G1 X129.559 Y152.138 E16.52562
G1 X128.772 Y152.068 E16.62044
G1 X127.997 Y151.918 E16.71516
G1 X127.24 Y151.691 E16.81
G1 X126.511 Y151.388 E16.90473
G1 X125.816 Y151.014 E16.99944
G1 X125.505 Y150.803 E17.04454
G1 X125.496 Y150.809 E17.04584
G1 X125.013 Y151.046 E17.1104
G1 X123.938 Y151.528 E17.25178
G1 X123.202 Y151.815 E17.34657
G1 X122.441 Y152.025 E17.44131
G1 X121.663 Y152.157 E17.536
G1 X120.875 Y152.21 E17.63077
G1 X120.085 Y152.183 E17.72563
G1 X119.303 Y152.076 E17.82034
G1 X118.535 Y151.891 E17.91514
G1 X117.79 Y151.629 E18.00991
G1 X117.076 Y151.293 E18.1046
G1 X116.52 Y150.966 E18.182
G1 X116.337 Y150.848 E18.20813
G1 X115.696 Y150.387 E18.30288
G1 X115.105 Y149.864 E18.39758
G1 X114.569 Y149.283 E18.49244
G1 X114.095 Y148.652 E18.58714
G1 X113.688 Y147.975 E18.68193
G1 X113.351 Y147.261 E18.77668
G1 X113.088 Y146.517 E18.87137
G1 X112.901 Y145.749 E18.96623
G1 X112.793 Y144.967 E19.06096
G1 X112.764 Y144.293 E19.14191
G1 X112.764 Y78.728 E27.00971
G1 X112.804 Y77.939 E27.10451
G1 X112.923 Y77.159 E27.1992
G1 X113.121 Y76.394 E27.29402
G1 X113.395 Y75.654 E27.38871
G1 X113.743 Y74.945 E27.48349
G1 X114.161 Y74.274 E27.57835
G0 F3600 X114.558 Y74.405
G1 F1800 X115.039 Y73.805 E27.67063
G1 X115.58 Y73.258 E27.76296
G1 X116.175 Y72.77 E27.8553
G1 X116.728 Y72.4 E27.93514
G1 X116.921 Y72.283 E27.96223
G1 X117.598 Y71.919 E28.05446
G1 X118.31 Y71.627 E28.14681
G1 X119.048 Y71.411 E28.23908
G1 X119.805 Y71.273 E28.33142
G1 X120.572 Y71.213 E28.42374
G1 X121.341 Y71.234 E28.51606
G1 X122.103 Y71.334 E28.60828
G1 X122.851 Y71.514 E28.7006
G1 X123.577 Y71.769 E28.79294
G1 X124.24 Y72.082 E28.88092
G1 X125.558 Y72.785 E29.06017
G1 X125.772 Y72.914 E29.09016
G1 X126.372 Y72.521 E29.17623
G1 X127.056 Y72.169 E29.26854
G1 X127.773 Y71.89 E29.36086
G1 X128.515 Y71.687 E29.45318
G1 X129.274 Y71.562 E29.54548
G1 X129.99 Y71.517 E29.63157
G1 X131.251 Y71.499 E29.78291
G1 X132.02 Y71.528 E29.87525
G1 X132.255 Y71.564 E29.90378
G1 X134.262 Y71.562 E30.14462
G1 X134.652 Y71.516 E30.19175
G1 X135.421 Y71.505 E30.28404
G1 X136.307 Y71.592 E30.39087
G1 X136.432 Y71.612 E30.40606
G1 X138.89 Y71.577 E30.70105
G1 X139.658 Y71.606 E30.79327
G1 X140.144 Y71.666 E30.85204
G1 X140.168 Y71.67 E30.85496
G1 X140.263 Y71.653 E30.86654
G1 X141.377 Y71.6 E31.00037
G1 X144.552 Y71.689 E31.38152
G1 X144.827 Y71.634 E31.41517
G1 X145.593 Y71.562 E31.5075
G1 X146.082 Y71.557 E31.56618
G1 X149.626 Y71.64 E31.99158
G1 X150.393 Y71.698 E32.08388
G1 X151.15 Y71.835 E32.1762
G1 X151.889 Y72.05 E32.26855
G1 X152.601 Y72.341 E32.36085
G1 X153.279 Y72.704 E32.45314
G1 X153.916 Y73.135 E32.54543
G1 X154.504 Y73.63 E32.63767
G1 X155.184 Y74.357 E32.75712
G1 X155.438 Y74.668 E32.80531
G1 X155.893 Y75.288 E32.89759
G1 X156.281 Y75.952 E32.98988
G1 X156.598 Y76.653 E33.0822
G1 X156.841 Y77.383 E33.17453
G1 X157.007 Y78.134 E33.26682
G1 X157.093 Y78.898 E33.35908
G1 X157.1 Y79.668 E33.45148
G1 X157.022 Y80.465 E33.54758
G1 X150.746 Y121.621 E38.54339
G1 X150.591 Y122.374 E38.63565
G1 X150.482 Y122.716 E38.67872
G1 X150.38 Y124.032 E38.83711
G1 X150.317 Y124.577 E38.90295
G1 X147.178 Y145.091 E41.39328
G1 X147.022 Y145.845 E41.48568
G1 X146.789 Y146.578 E41.57798
G1 X146.481 Y147.282 E41.67019
G1 X146.102 Y147.951 E41.76246
G1 X145.655 Y148.578 E41.85486
G1 X144.984 Y149.314 E41.97437
G1 X144.79 Y149.5 E42.00662
G1 X144.208 Y150.002 E42.09886
G1 X143.577 Y150.442 E42.19117
G1 X142.904 Y150.814 E42.28344
G1 X142.195 Y151.113 E42.37578
G1 X141.46 Y151.338 E42.46802
G1 X140.544 Y151.506 E42.57977
G1 X139.788 Y151.596 E42.67113
G1 X138.837 Y151.648 E42.78542
G1 X136.203 Y151.621 E43.10152
G1 X135.943 Y151.652 E43.13294
G1 X134.975 Y151.704 E43.24927
G1 X131.402 Y151.661 E43.67806
G1 X130.323 Y151.729 E43.8078
G1 X129.554 Y151.738 E43.90008
G1 X128.788 Y151.666 E43.99241
G1 X128.034 Y151.515 E44.08468
G1 X127.3 Y151.287 E44.17692
G1 X126.593 Y150.984 E44.26922
G1 X125.921 Y150.609 E44.36157
G1 X125.52 Y150.327 E44.42039
G1 X125.219 Y150.503 E44.46223
G1 X124.85 Y150.681 E44.5114
G1 X123.775 Y151.163 E44.65277
G1 X123.057 Y151.441 E44.74516
G1 X122.315 Y151.643 E44.83744
G1 X121.556 Y151.767 E44.92973
G1 X120.788 Y151.811 E45.02204
G1 X120.02 Y151.775 E45.1143
G1 X119.259 Y151.66 E45.20666
G1 X118.515 Y151.466 E45.29893
G1 X117.795 Y151.197 E45.39116
G1 X117.106 Y150.853 E45.48357
G1 X116.737 Y150.63 E45.53531
G1 X116.554 Y150.512 E45.56144
G1 X115.93 Y150.062 E45.65376
G1 X115.356 Y149.55 E45.74606
G1 X114.839 Y148.981 E45.83831
G1 X114.383 Y148.362 E45.93057
G1 X113.994 Y147.698 E46.02292
G1 X113.676 Y146.998 E46.11518
G1 X113.432 Y146.268 E46.20755
G1 X113.266 Y145.517 E46.29984
G1 X113.178 Y144.753 E46.39213
G1 X113.164 Y144.293 E46.44735
G1 X113.164 Y78.728 E54.31515
G1 X113.204 Y77.96 E54.40744
G1 X113.323 Y77.2 E54.49975
G1 X113.521 Y76.457 E54.59202
G1 X113.795 Y75.738 E54.68435
G1 X114.142 Y75.052 E54.77661
G1 X114.558 Y74.405 E54.86891
G0 F3600 X114.956 Y74.539
G1 F1800 X115.435 Y73.965 E54.95862
G1 X115.972 Y73.444 E55.04841
G1 X116.562 Y72.985 E55.13811
G1 X116.935 Y72.742 E55.19153
G1 X117.128 Y72.625 E55.21861
G1 X117.788 Y72.272 E55.30843
G1 X118.481 Y71.991 E55.39817
G1 X119.201 Y71.786 E55.488
G1 X119.938 Y71.659 E55.57774
G1 X120.684 Y71.611 E55.66745
G1 X121.432 Y71.644 E55.7573
G1 X122.171 Y71.755 E55.84697
G1 X122.895 Y71.945 E55.93679
G1 X123.594 Y72.212 E56.02658
G1 X124.051 Y72.435 E56.0876
G1 X125.369 Y73.138 E56.26686
G1 X125.803 Y73.399 E56.32763
G1 X126.115 Y73.158 E56.37494
G1 X126.752 Y72.766 E56.46469
G1 X127.428 Y72.445 E56.55449
G1 X128.133 Y72.197 E56.64417
G1 X128.862 Y72.026 E56.73403
G1 X129.604 Y71.933 E56.82377
G1 X129.996 Y71.917 E56.87084
G1 X131.257 Y71.899 E57.02218
G1 X132.005 Y71.928 E57.11201
G1 X132.238 Y71.964 E57.1403
G1 X134.29 Y71.962 E57.38654
G1 X134.699 Y71.914 E57.43596
G1 X135.447 Y71.907 E57.52572
G1 X136.244 Y71.987 E57.62184
G1 X136.404 Y72.012 E57.64127
G1 X138.896 Y71.977 E57.94034
G1 X139.643 Y72.006 E58.03005
G1 X140.082 Y72.061 E58.08314
G1 X140.177 Y72.076 E58.09468
G1 X140.393 Y72.04 E58.12096
G1 X141.366 Y72 E58.23782
G1 X144.588 Y72.091 E58.62461
G1 X144.906 Y72.027 E58.66354
G1 X145.651 Y71.96 E58.7533
G1 X146.073 Y71.957 E58.80394
G1 X149.617 Y72.04 E59.22934
G1 X150.363 Y72.097 E59.31912
G1 X151.098 Y72.234 E59.40884
G1 X151.815 Y72.449 E59.49866
G1 X152.505 Y72.738 E59.58843
G1 X153.159 Y73.1 E59.67813
G1 X153.772 Y73.529 E59.76792
G1 X154.335 Y74.022 E59.85772
G1 X154.875 Y74.61 E59.95352
G1 X155.129 Y74.921 E60.0017
G1 X155.57 Y75.525 E60.09145
G1 X155.945 Y76.172 E60.18119
G1 X156.248 Y76.856 E60.27096
G1 X156.477 Y77.568 E60.36071
G1 X156.628 Y78.301 E60.45052
G1 X156.7 Y79.046 E60.54033
G1 X156.693 Y79.794 E60.6301
G1 X156.627 Y80.404 E60.70372
G1 X150.351 Y121.56 E65.69954
G1 X150.199 Y122.293 E65.78937
G1 X150.087 Y122.64 E65.83312
G1 X149.981 Y124.001 E65.99694
G1 X149.921 Y124.517 E66.05927
G1 X146.782 Y145.031 E68.54961
G1 X146.63 Y145.763 E68.63932
G1 X146.4 Y146.475 E68.72911
G1 X146.096 Y147.158 E68.81882
G1 X145.72 Y147.805 E68.90862
G1 X145.278 Y148.408 E68.99834
G1 X144.707 Y149.025 E69.09922
G1 X144.513 Y149.211 E69.13147
G1 X143.947 Y149.699 E69.22115
G1 X143.331 Y150.124 E69.31095
G1 X142.673 Y150.48 E69.40073
G1 X141.981 Y150.765 E69.49054
G1 X141.263 Y150.974 E69.58027
G1 X140.496 Y151.109 E69.67373
G1 X139.74 Y151.199 E69.76509
G1 X138.841 Y151.248 E69.87313
G1 X136.183 Y151.221 E70.1921
G1 X135.896 Y151.255 E70.22679
G1 X134.979 Y151.304 E70.33698
G1 X131.395 Y151.261 E70.76709
G1 X130.298 Y151.33 E70.89899
G1 X129.55 Y151.337 E70.98876
G1 X128.806 Y151.264 E71.07847
G1 X128.073 Y151.112 E71.1683
G1 X127.361 Y150.883 E71.25805
G1 X126.678 Y150.579 E71.34776
G1 X126.031 Y150.204 E71.4375
G1 X125.548 Y149.85 E71.50936
G1 X124.686 Y150.316 E71.62695
G1 X123.611 Y150.798 E71.76832
G1 X122.913 Y151.067 E71.85808
G1 X122.19 Y151.261 E71.94791
G1 X121.451 Y151.376 E72.03766
G1 X120.704 Y151.411 E72.1274
G1 X119.957 Y151.366 E72.2172
G1 X119.219 Y151.242 E72.307
G1 X118.499 Y151.04 E72.39674
G1 X117.805 Y150.763 E72.48641
G1 X116.954 Y150.294 E72.60301
G1 X116.771 Y150.176 E72.62914
G1 X116.164 Y149.738 E72.71896
G1 X115.609 Y149.237 E72.80868
G1 X115.109 Y148.68 E72.8985
G1 X114.672 Y148.073 E72.98826
G1 X114.303 Y147.423 E73.07795
G1 X114.004 Y146.736 E73.16786
G1 X113.781 Y146.023 E73.25751
G1 X113.635 Y145.289 E73.34731
G1 X113.564 Y144.293 E73.46713
G1 X113.564 Y78.728 E81.33493
G1 X113.604 Y77.981 E81.4247
G1 X113.723 Y77.243 E81.51441
G1 X113.921 Y76.521 E81.60425
G1 X114.194 Y75.825 E81.69396
G1 X114.541 Y75.162 E81.78376
G1 X114.956 Y74.539 E81.87359
G0 F3600 X115.353 Y74.678
G1 F1800 X115.829 Y74.13 E81.96069
G1 X116.363 Y73.637 E82.0479
G1 X117.143 Y73.084 E82.16264
G1 X117.336 Y72.967 E82.18972
G1 X117.976 Y72.625 E82.2768
G1 X118.651 Y72.356 E82.364
G1 X119.351 Y72.162 E82.45116
G1 X120.068 Y72.047 E82.5383
G1 X120.794 Y72.011 E82.62553
G1 X121.519 Y72.055 E82.71269
G1 X122.235 Y72.179 E82.79989
G1 X122.933 Y72.38 E82.88705
G1 X123.863 Y72.788 E83.00892
G1 X125.181 Y73.491 E83.18817
G1 X125.802 Y73.867 E83.27529
G1 X125.829 Y73.888 E83.27939
G1 X125.914 Y73.81 E83.29324
G1 X126.5 Y73.382 E83.38031
G1 X127.13 Y73.02 E83.46751
G1 X127.796 Y72.73 E83.55467
G1 X128.49 Y72.514 E83.64189
G1 X129.203 Y72.377 E83.72902
G1 X130.002 Y72.317 E83.82517
G1 X131.263 Y72.299 E83.97651
G1 X131.989 Y72.328 E84.06369
G1 X132.218 Y72.364 E84.09151
G1 X134.312 Y72.362 E84.34279
G1 X134.745 Y72.312 E84.3951
G1 X135.472 Y72.308 E84.48234
G1 X136.181 Y72.382 E84.56788
G1 X136.375 Y72.413 E84.59146
G1 X138.901 Y72.377 E84.89461
G1 X139.627 Y72.406 E84.9818
G1 X140.02 Y72.456 E85.02934
G1 X140.182 Y72.482 E85.04903
G1 X140.522 Y72.429 E85.09032
G1 X141.355 Y72.4 E85.19034
G1 X144.621 Y72.492 E85.58241
G1 X144.984 Y72.42 E85.62682
G1 X146.064 Y72.357 E85.75664
G1 X149.608 Y72.44 E86.18204
G1 X150.332 Y72.497 E86.26919
G1 X151.045 Y72.633 E86.35629
G1 X151.739 Y72.847 E86.44344
G1 X152.406 Y73.135 E86.53062
G1 X153.037 Y73.496 E86.61786
G1 X153.624 Y73.923 E86.70496
G1 X154.161 Y74.412 E86.79212
G1 X154.565 Y74.863 E86.86478
G1 X154.819 Y75.174 E86.91296
G1 X155.247 Y75.761 E87.00014
G1 X155.607 Y76.392 E87.08732
G1 X155.897 Y77.058 E87.17448
G1 X156.111 Y77.752 E87.26163
G1 X156.248 Y78.465 E87.34876
G1 X156.305 Y79.189 E87.43591
G1 X156.283 Y79.915 E87.52307
G1 X156.232 Y80.344 E87.57491
G1 X149.956 Y121.5 E92.57072
G1 X149.807 Y122.211 E92.65789
G1 X149.691 Y122.564 E92.70248
G1 X149.582 Y123.97 E92.87171
G1 X149.526 Y124.456 E92.93042
G1 X146.387 Y144.97 E95.42075
G1 X146.238 Y145.681 E95.50792
G1 X146.011 Y146.371 E95.59509
G1 X145.711 Y147.032 E95.68219
G1 X145.339 Y147.656 E95.76937
G1 X144.901 Y148.236 E95.85659
G1 X144.431 Y148.736 E95.93893
G1 X144.237 Y148.922 E95.97119
G1 X143.685 Y149.395 E96.05842
G1 X143.086 Y149.805 E96.14552
G1 X142.444 Y150.146 E96.23276
G1 X141.77 Y150.415 E96.31984
G1 X141.069 Y150.608 E96.40709
G1 X140.449 Y150.712 E96.48253
G1 X139.693 Y150.802 E96.57389
G1 X138.845 Y150.848 E96.6758
G1 X136.162 Y150.82 E96.99778
G1 X135.848 Y150.858 E97.03573
G1 X134.984 Y150.905 E97.13956
G1 X131.375 Y150.862 E97.57268
G1 X130.273 Y150.931 E97.70517
G1 X129.547 Y150.937 E97.7923
G1 X128.824 Y150.862 E97.87952
G1 X128.114 Y150.709 E97.96668
G1 X127.425 Y150.479 E98.05384
G1 X126.766 Y150.174 E98.14098
G1 X126.144 Y149.799 E98.22814
G1 X125.567 Y149.357 E98.31536
G1 X125.564 Y149.354 E98.31587
G1 X125.308 Y149.533 E98.35335
G1 X124.522 Y149.951 E98.46018
G1 X123.447 Y150.433 E98.60156
G1 X122.769 Y150.694 E98.68874
G1 X122.066 Y150.878 E98.77594
G1 X121.348 Y150.984 E98.86303
G1 X120.622 Y151.01 E98.95021
G1 X119.898 Y150.956 E99.03733
G1 X119.184 Y150.823 E99.12448
G1 X118.488 Y150.613 E99.21172
G1 X117.821 Y150.327 E99.29881
G1 X117.17 Y149.958 E99.38861
G1 X116.987 Y149.84 E99.41473
G1 X116.399 Y149.413 E99.50194
G1 X115.862 Y148.925 E99.58901
G1 X115.382 Y148.38 E99.67616
G1 X114.964 Y147.786 E99.76332
G1 X114.614 Y147.149 E99.85054
G1 X114.336 Y146.478 E99.93769
G1 X114.134 Y145.78 E100.02489
G1 X114.009 Y145.065 E100.11199
G1 X113.964 Y144.293 E100.20479
G1 X113.964 Y78.728 E108.07259
G1 X114.004 Y78.003 E108.15972
G1 X114.123 Y77.286 E108.24694
G1 X114.321 Y76.587 E108.33412
G1 X114.594 Y75.914 E108.42127
G1 X114.939 Y75.275 E108.50841
G1 X115.353 Y74.678 E108.59559
G0 F3600 X115.338 Y75.393
G1 F1800 X115.749 Y74.822 E108.68002
G1 X116.223 Y74.301 E108.76454
G1 X116.753 Y73.837 E108.84907
G1 X117.35 Y73.426 E108.93605
G1 X117.543 Y73.309 E108.96313
G1 X118.165 Y72.979 E109.04762
G1 X118.82 Y72.721 E109.1321
G1 X119.5 Y72.54 E109.21654
G1 X120.196 Y72.436 E109.30099
G1 X120.9 Y72.413 E109.38551
G1 X121.602 Y72.469 E109.47002
G1 X122.293 Y72.604 E109.55451
G1 X122.964 Y72.817 E109.63899
G1 X123.675 Y73.141 E109.73275
G1 X124.993 Y73.844 E109.912
G1 X125.594 Y74.21 E109.99644
G1 X125.848 Y74.407 E110.03502
G1 X126.303 Y74.012 E110.10732
G1 X126.883 Y73.613 E110.1918
G1 X127.505 Y73.283 E110.27629
G1 X128.16 Y73.026 E110.36073
G1 X128.841 Y72.844 E110.44532
G1 X129.537 Y72.741 E110.52975
G1 X130.008 Y72.717 E110.58634
G1 X131.269 Y72.699 E110.73767
G1 X131.972 Y72.729 E110.82211
G1 X132.195 Y72.764 E110.8492
G1 X134.333 Y72.762 E111.10576
G1 X134.791 Y72.71 E111.16107
G1 X135.495 Y72.71 E111.24555
G1 X136.118 Y72.777 E111.32074
G1 X136.347 Y72.813 E111.34856
