;FLAVOR:UltiGCode
;TIME:7569
;MATERIAL:18170
;MATERIAL2:0
;NOZZLE_DIAMETER:0.4
;Generated with Cura_SteamEngine 2.7.0

;LAYER_COUNT:142
;LAYER:0
M107
G0 F3600 X86.584 Y53.976 Z0.3
;TYPE:SKIRT
G1 F1800 X87.002 Y53.305 E0.09487
G1 X87.431 Y52.744 E0.17961
G1 X87.614 Y52.526 E0.21377
G1 X88.152 Y51.948 E0.30853
G1 X88.745 Y51.427 E0.40325
G1 X89.388 Y50.968 E0.49805
G1 X90.074 Y50.577 E0.5928
G1 X90.796 Y50.258 E0.68752
G1 X91.547 Y50.013 E0.78232
G1 X91.97 Y49.911 E0.83453
G1 X92.437 Y49.812 E0.89182
G1 X93.217 Y49.687 E0.98661
G1 X93.889 Y49.644 E1.06742
G1 X96.197 Y49.595 E1.34444
G1 X96.987 Y49.618 E1.43928
G1 X97.77 Y49.721 E1.53405
G1 X98.538 Y49.902 E1.62873
G1 X99.284 Y50.161 E1.7235
G1 X100.001 Y50.493 E1.81831
G1 X100.68 Y50.896 E1.91306
G1 X100.685 Y50.9 E1.91383
G1 X100.868 Y50.794 E1.93921
G1 X101.588 Y50.469 E2.034
G1 X102.337 Y50.219 E2.12876
G1 X103.107 Y50.045 E2.22349
G1 X103.891 Y49.951 E2.31824
G1 X104.432 Y49.932 E2.3832
G1 X118.569 Y49.932 E4.07964
G1 X119.358 Y49.972 E4.17444
G1 X120.138 Y50.091 E4.26913
G1 X120.903 Y50.289 E4.36395
G1 X121.643 Y50.563 E4.45864
G1 X122.332 Y50.901 E4.55074
G1 X122.511 Y50.776 E4.57693
G1 X123.201 Y50.392 E4.67169
G1 X123.927 Y50.08 E4.76652
G1 X124.68 Y49.844 E4.86121
G1 X125.454 Y49.684 E4.95606
G1 X126.239 Y49.603 E5.05076
G1 X126.807 Y49.595 E5.11892
G1 X129.111 Y49.644 E5.39546
G1 X129.898 Y49.7 E5.49014
G1 X130.563 Y49.812 E5.57107
G1 X131.03 Y49.911 E5.62835
G1 X131.793 Y50.113 E5.72307
G1 X132.532 Y50.392 E5.81786
G1 X133.239 Y50.744 E5.91263
G1 X133.906 Y51.166 E6.00734
G1 X134.528 Y51.653 E6.10214
G1 X135.097 Y52.2 E6.19686
G1 X135.386 Y52.526 E6.24913
G1 X135.569 Y52.744 E6.28329
G1 X136.046 Y53.374 E6.37811
G1 X136.456 Y54.048 E6.47278
G1 X136.796 Y54.761 E6.56757
G1 X137.062 Y55.505 E6.66239
G1 X137.252 Y56.271 E6.75709
G1 X137.363 Y57.053 E6.85187
G1 X137.395 Y57.759 E6.93668
G1 X137.396 Y167.466 E20.10152
G1 X137.356 Y168.255 E20.19632
G1 X137.237 Y169.035 E20.29101
G1 X137.039 Y169.8 E20.38583
G1 X136.765 Y170.54 E20.48052
G1 X136.417 Y171.249 E20.5753
G1 X136 Y171.92 E20.6701
G1 X135.516 Y172.544 E20.76487
G1 X135.111 Y172.981 E20.83636
G1 X134.877 Y173.215 E20.87607
G1 X134.291 Y173.745 E20.97089
G1 X133.655 Y174.212 E21.06557
G1 X132.975 Y174.613 E21.16031
G1 X132.257 Y174.943 E21.25513
G1 X131.51 Y175.198 E21.34985
G1 X130.741 Y175.377 E21.4446
G1 X129.957 Y175.477 E21.53944
G1 X129.362 Y175.5 E21.61089
G1 X126.644 Y175.5 E21.93705
G1 X125.855 Y175.46 E22.03185
G1 X125.075 Y175.341 E22.12654
G1 X124.31 Y175.143 E22.22136
G1 X123.57 Y174.869 E22.31605
G1 X122.861 Y174.521 E22.41083
G1 X122.429 Y174.252 E22.4719
G1 X122.156 Y174.413 E22.50993
G1 X121.438 Y174.743 E22.60476
G1 X120.691 Y174.998 E22.69947
G1 X119.922 Y175.177 E22.79422
G1 X119.138 Y175.277 E22.88906
G1 X118.543 Y175.3 E22.96052
G1 X104.458 Y175.3 E24.65072
G1 X103.669 Y175.26 E24.74552
G1 X102.889 Y175.141 E24.8402
G1 X102.124 Y174.943 E24.93503
G1 X101.384 Y174.669 E25.02972
G1 X100.675 Y174.321 E25.12449
G1 X100.571 Y174.256 E25.13921
G1 X100.483 Y174.317 E25.15206
G1 X99.793 Y174.701 E25.24682
G1 X99.067 Y175.013 E25.34164
G1 X98.314 Y175.25 E25.43637
G1 X97.541 Y175.409 E25.53108
G1 X96.755 Y175.49 E25.62589
G1 X96.354 Y175.5 E25.67403
G1 X93.638 Y175.5 E25.99995
G1 X92.849 Y175.46 E26.09475
G1 X92.069 Y175.341 E26.18943
G1 X91.304 Y175.143 E26.28426
G1 X90.564 Y174.869 E26.37895
G1 X89.855 Y174.521 E26.47373
G1 X89.184 Y174.103 E26.56859
G1 X88.56 Y173.62 E26.66328
G1 X88.123 Y173.215 E26.73478
G1 X87.889 Y172.981 E26.77449
G1 X87.359 Y172.395 E26.86931
G1 X86.892 Y171.759 E26.96399
G1 X86.491 Y171.079 E27.05872
G1 X86.161 Y170.361 E27.15355
G1 X85.906 Y169.614 E27.24827
G1 X85.727 Y168.845 E27.34301
G1 X85.627 Y168.061 E27.43786
G1 X85.604 Y167.466 E27.50931
G1 X85.605 Y57.759 E40.67415
G1 X85.645 Y56.97 E40.76895
G1 X85.765 Y56.19 E40.86365
G1 X85.962 Y55.425 E40.95845
G1 X86.236 Y54.685 E41.05314
G1 X86.584 Y53.976 E41.14792
G0 F3600 X86.983 Y54.082
G1 F1800 X87.399 Y53.436 E41.24012
G1 X87.737 Y53.001 E41.30622
G1 X87.92 Y52.783 E41.34038
G1 X88.445 Y52.221 E41.43267
G1 X89.025 Y51.715 E41.52503
G1 X89.654 Y51.273 E41.61728
G1 X90.326 Y50.899 E41.70957
G1 X91.033 Y50.596 E41.80187
G1 X92.053 Y50.302 E41.92926
G1 X92.52 Y50.203 E41.98654
G1 X93.28 Y50.083 E42.07887
G1 X93.898 Y50.044 E42.15318
G1 X96.206 Y49.995 E42.4302
G1 X96.975 Y50.018 E42.52252
G1 X97.737 Y50.122 E42.61481
G1 X98.484 Y50.304 E42.70707
G1 X99.209 Y50.562 E42.79942
G1 X99.902 Y50.894 E42.89163
G1 X100.558 Y51.297 E42.98402
G1 X100.66 Y51.375 E42.99943
G1 X101.122 Y51.113 E43.06316
G1 X101.827 Y50.806 E43.15543
G1 X102.56 Y50.573 E43.24773
G1 X103.313 Y50.417 E43.34001
G1 X104.432 Y50.332 E43.47468
G1 X118.569 Y50.332 E45.17112
G1 X119.337 Y50.372 E45.2634
G1 X120.097 Y50.491 E45.35571
G1 X120.84 Y50.689 E45.44798
G1 X121.559 Y50.963 E45.54032
G1 X122.245 Y51.31 E45.63257
G1 X122.345 Y51.374 E45.64682
G1 X122.894 Y51.012 E45.72573
G1 X123.577 Y50.657 E45.8181
G1 X124.292 Y50.376 E45.91029
G1 X125.033 Y50.17 E46.00258
G1 X125.792 Y50.042 E46.09495
G1 X126.798 Y49.995 E46.2158
G1 X129.102 Y50.044 E46.49234
G1 X129.869 Y50.1 E46.58462
G1 X130.48 Y50.203 E46.65898
G1 X130.947 Y50.302 E46.71626
G1 X131.69 Y50.5 E46.80854
G1 X132.408 Y50.775 E46.9008
G1 X133.094 Y51.122 E46.99305
G1 X133.741 Y51.539 E47.08542
G1 X134.34 Y52.021 E47.17768
G1 X135.08 Y52.783 E47.30514
G1 X135.263 Y53.001 E47.3393
G1 X135.726 Y53.615 E47.43158
G1 X136.123 Y54.274 E47.5239
G1 X136.449 Y54.97 E47.61613
G1 X136.702 Y55.697 E47.7085
G1 X136.878 Y56.446 E47.80083
G1 X136.975 Y57.209 E47.89313
G1 X136.995 Y57.759 E47.95917
G1 X136.996 Y167.466 E61.12401
G1 X136.956 Y168.234 E61.21629
G1 X136.837 Y168.994 E61.30861
G1 X136.639 Y169.737 E61.40088
G1 X136.365 Y170.456 E61.49321
G1 X136.018 Y171.142 E61.58546
G1 X135.602 Y171.789 E61.67777
G1 X135.121 Y172.389 E61.77005
G1 X134.829 Y172.699 E61.82115
G1 X134.595 Y172.933 E61.86086
G1 X134.023 Y173.447 E61.95314
G1 X133.401 Y173.9 E62.04548
G1 X132.736 Y174.286 E62.13775
G1 X132.034 Y174.601 E62.23008
G1 X131.303 Y174.841 E62.32241
G1 X130.552 Y175.004 E62.41463
G1 X129.787 Y175.088 E62.50698
G1 X129.362 Y175.1 E62.558
G1 X126.644 Y175.1 E62.88416
G1 X125.876 Y175.06 E62.97644
G1 X125.116 Y174.941 E63.06875
G1 X124.373 Y174.743 E63.16103
G1 X123.654 Y174.469 E63.25336
G1 X122.968 Y174.122 E63.34561
G1 X122.44 Y173.782 E63.42097
G1 X121.917 Y174.086 E63.49356
G1 X121.215 Y174.401 E63.58589
G1 X120.484 Y174.641 E63.67822
G1 X119.733 Y174.804 E63.77044
G1 X118.968 Y174.888 E63.86279
G1 X118.543 Y174.9 E63.91381
G1 X104.458 Y174.9 E65.60401
G1 X103.69 Y174.86 E65.6963
G1 X102.93 Y174.741 E65.78861
G1 X102.187 Y174.543 E65.88088
G1 X101.468 Y174.269 E65.97321
G1 X100.782 Y173.922 E66.06546
G1 X100.56 Y173.779 E66.09715
G1 X100.1 Y174.082 E66.16325
G1 X99.418 Y174.436 E66.25546
G1 X98.702 Y174.718 E66.3478
G1 X97.961 Y174.923 E66.44006
G1 X97.202 Y175.051 E66.53243
G1 X96.354 Y175.1 E66.63436
G1 X93.638 Y175.1 E66.96028
G1 X92.87 Y175.06 E67.05256
G1 X92.11 Y174.941 E67.14488
G1 X91.367 Y174.743 E67.23715
G1 X90.648 Y174.469 E67.32948
G1 X89.962 Y174.122 E67.42173
G1 X89.315 Y173.706 E67.51404
G1 X88.715 Y173.225 E67.60632
G1 X88.405 Y172.933 E67.65742
G1 X88.171 Y172.699 E67.69713
G1 X87.657 Y172.127 E67.78941
G1 X87.204 Y171.505 E67.88175
G1 X86.818 Y170.84 E67.97402
G1 X86.503 Y170.138 E68.06635
G1 X86.263 Y169.407 E68.15868
G1 X86.1 Y168.656 E68.2509
G1 X86.016 Y167.891 E68.34325
G1 X86.004 Y167.466 E68.39427
G1 X86.005 Y57.759 E81.55911
G1 X86.045 Y56.991 E81.65139
G1 X86.164 Y56.231 E81.7437
G1 X86.362 Y55.488 E81.83598
G1 X86.636 Y54.769 E81.92831
G1 X86.983 Y54.082 E82.02067
G0 F3600 X87.382 Y54.193
G1 F1800 X87.797 Y53.57 E82.1105
G1 X88.044 Y53.258 E82.15825
G1 X88.227 Y53.04 E82.1924
G1 X88.738 Y52.494 E82.28214
G1 X89.304 Y52.005 E82.3719
G1 X89.919 Y51.58 E82.46161
G1 X90.576 Y51.222 E82.55139
G1 X91.268 Y50.937 E82.6412
G1 X92.136 Y50.693 E82.7494
G1 X92.603 Y50.594 E82.80668
G1 X93.342 Y50.478 E82.89645
G1 X93.906 Y50.444 E82.96425
G1 X96.214 Y50.395 E83.24127
G1 X96.962 Y50.419 E83.33108
G1 X97.703 Y50.522 E83.42085
G1 X98.428 Y50.705 E83.51058
G1 X99.13 Y50.963 E83.60033
G1 X99.801 Y51.295 E83.69017
G1 X100.432 Y51.697 E83.77995
G1 X100.633 Y51.858 E83.81085
G1 X100.72 Y51.797 E83.8236
G1 X101.375 Y51.435 E83.91341
G1 X102.064 Y51.145 E84.00312
G1 X102.781 Y50.93 E84.09294
G1 X103.516 Y50.792 E84.18268
G1 X104.432 Y50.732 E84.29284
G1 X118.569 Y50.732 E85.98928
G1 X119.316 Y50.772 E86.07905
G1 X120.054 Y50.891 E86.16875
G1 X120.776 Y51.089 E86.25859
G1 X121.472 Y51.362 E86.3483
G1 X122.135 Y51.709 E86.4381
G1 X122.366 Y51.863 E86.47142
G1 X122.639 Y51.65 E86.51297
G1 X123.275 Y51.255 E86.60281
G1 X123.949 Y50.931 E86.69255
G1 X124.654 Y50.681 E86.78231
G1 X125.382 Y50.507 E86.87213
G1 X126.124 Y50.412 E86.9619
G1 X126.79 Y50.395 E87.04184
G1 X129.094 Y50.444 E87.31839
G1 X129.84 Y50.499 E87.40815
G1 X130.397 Y50.594 E87.47596
G1 X130.864 Y50.693 E87.53324
G1 X131.586 Y50.887 E87.62295
G1 X132.284 Y51.157 E87.71276
G1 X132.949 Y51.5 E87.80255
G1 X133.573 Y51.912 E87.89228
G1 X134.15 Y52.388 E87.98204
G1 X134.773 Y53.04 E88.09026
G1 X134.956 Y53.258 E88.12441
G1 X135.406 Y53.856 E88.21422
G1 X135.789 Y54.499 E88.30403
G1 X136.102 Y55.178 E88.39375
G1 X136.34 Y55.887 E88.4835
G1 X136.501 Y56.618 E88.57332
G1 X136.584 Y57.361 E88.66303
G1 X136.595 Y57.759 E88.71081
G1 X136.596 Y167.466 E101.87565
G1 X136.556 Y168.213 E101.96542
G1 X136.437 Y168.951 E102.05512
G1 X136.239 Y169.673 E102.14496
G1 X135.966 Y170.369 E102.23468
G1 X135.619 Y171.032 E102.32448
G1 X135.204 Y171.655 E102.4143
G1 X134.546 Y172.416 E102.53503
G1 X134.312 Y172.65 E102.57474
G1 X133.755 Y173.15 E102.66456
G1 X133.149 Y173.587 E102.75421
G1 X132.499 Y173.958 E102.84402
G1 X131.813 Y174.257 E102.93382
G1 X131.099 Y174.481 E103.02362
G1 X130.366 Y174.628 E103.11333
G1 X129.362 Y174.7 E103.23412
G1 X126.644 Y174.7 E103.56028
G1 X125.897 Y174.66 E103.65005
G1 X125.159 Y174.541 E103.73975
G1 X124.437 Y174.343 E103.82959
G1 X123.741 Y174.07 E103.91931
G1 X123.078 Y173.723 E104.00911
G1 X122.455 Y173.308 E104.09894
G1 X122.448 Y173.302 E104.10004
G1 X122.33 Y173.387 E104.11749
G1 X121.68 Y173.758 E104.2073
G1 X120.994 Y174.057 E104.2971
G1 X120.28 Y174.281 E104.3869
G1 X119.547 Y174.428 E104.47661
G1 X118.543 Y174.5 E104.5974
G1 X104.458 Y174.5 E106.2876
G1 X103.711 Y174.46 E106.37737
G1 X102.973 Y174.341 E106.46707
G1 X102.251 Y174.143 E106.55691
G1 X101.555 Y173.87 E106.64663
G1 X100.892 Y173.523 E106.73643
G1 X100.548 Y173.294 E106.78602
G1 X100.355 Y173.444 E106.81535
G1 X99.719 Y173.838 E106.90513
G1 X99.045 Y174.162 E106.99487
G1 X98.34 Y174.412 E107.08463
G1 X97.613 Y174.586 E107.17433
G1 X96.871 Y174.681 E107.2641
G1 X96.354 Y174.7 E107.32618
G1 X93.638 Y174.7 E107.6521
G1 X92.891 Y174.66 E107.74187
G1 X92.153 Y174.541 E107.83157
G1 X91.431 Y174.343 E107.92141
G1 X90.735 Y174.07 E108.01113
G1 X90.072 Y173.723 E108.10093
G1 X89.449 Y173.308 E108.19075
G1 X88.688 Y172.65 E108.31148
G1 X88.454 Y172.416 E108.35119
G1 X87.954 Y171.859 E108.44101
G1 X87.517 Y171.253 E108.53066
G1 X87.146 Y170.603 E108.62047
G1 X86.847 Y169.917 E108.71027
G1 X86.623 Y169.203 E108.80007
G1 X86.476 Y168.47 E108.88978
G1 X86.404 Y167.466 E109.01057
G1 X86.405 Y57.759 E122.17541
G1 X86.445 Y57.012 E122.26518
G1 X86.564 Y56.273 E122.355
G1 X86.762 Y55.552 E122.44473
G1 X87.035 Y54.856 E122.53444
G1 X87.382 Y54.193 E122.62424
G0 F3600 X87.78 Y54.306
G1 F1800 X88.35 Y53.516 E122.74114
G1 X88.533 Y53.298 E122.77529
G1 X89.03 Y52.768 E122.86248
G1 X89.582 Y52.296 E122.94964
G1 X90.183 Y51.887 E123.03687
G1 X90.825 Y51.547 E123.12405
G1 X91.5 Y51.28 E123.21116
G1 X92.219 Y51.084 E123.30059
G1 X92.686 Y50.985 E123.35787
G1 X93.404 Y50.874 E123.44505
G1 X93.915 Y50.843 E123.50649
G1 X96.223 Y50.794 E123.78351
G1 X96.949 Y50.819 E123.87068
G1 X97.668 Y50.923 E123.95786
G1 X98.371 Y51.106 E124.04503
G1 X99.049 Y51.364 E124.13208
G1 X99.696 Y51.696 E124.21935
G1 X100.301 Y52.097 E124.30645
G1 X100.616 Y52.359 E124.35561
G1 X100.986 Y52.103 E124.4096
G1 X101.626 Y51.758 E124.49685
G1 X102.299 Y51.486 E124.58396
G1 X102.998 Y51.29 E124.67107
G1 X103.715 Y51.171 E124.75829
G1 X104.432 Y51.132 E124.84446
G1 X118.569 Y51.132 E126.5409
G1 X119.294 Y51.172 E126.62803
G1 X120.011 Y51.291 E126.71525
G1 X120.71 Y51.489 E126.80243
G1 X121.383 Y51.762 E126.88958
G1 X122.022 Y52.107 E126.97672
G1 X122.382 Y52.357 E127.02932
G1 X122.44 Y52.303 E127.03883
G1 X123.025 Y51.872 E127.12602
G1 X123.654 Y51.508 E127.21323
G1 X124.318 Y51.215 E127.30032
G1 X125.011 Y50.997 E127.3875
G1 X125.724 Y50.857 E127.47469
G1 X126.781 Y50.794 E127.60176
G1 X129.085 Y50.843 E127.8783
G1 X129.81 Y50.899 E127.96556
G1 X130.314 Y50.985 E128.02691
G1 X130.781 Y51.084 E128.0842
G1 X131.482 Y51.274 E128.17135
G1 X132.158 Y51.539 E128.25848
G1 X132.801 Y51.878 E128.34571
G1 X133.403 Y52.284 E128.43284
G1 X133.956 Y52.755 E128.52001
G1 X134.467 Y53.298 E128.60949
G1 X134.65 Y53.516 E128.64364
G1 X135.086 Y54.097 E128.73081
G1 X135.455 Y54.722 E128.81791
G1 X135.753 Y55.385 E128.90513
G1 X135.977 Y56.076 E128.9923
G1 X136.123 Y56.787 E129.0794
G1 X136.195 Y57.759 E129.19636
G1 X136.196 Y167.466 E142.3612
G1 X136.156 Y168.191 E142.44833
G1 X136.037 Y168.908 E142.53555
G1 X135.839 Y169.607 E142.62273
G1 X135.566 Y170.28 E142.70988
G1 X135.221 Y170.919 E142.79703
G1 X134.807 Y171.516 E142.88421
G1 X134.263 Y172.133 E142.98291
G1 X134.029 Y172.367 E143.02263
G1 X133.488 Y172.851 E143.10973
G1 X132.897 Y173.274 E143.19695
G1 X132.263 Y173.628 E143.28408
G1 X131.594 Y173.911 E143.37125
G1 X130.898 Y174.119 E143.45842
G1 X130.183 Y174.249 E143.54563
G1 X129.362 Y174.3 E143.64434
G1 X126.644 Y174.3 E143.9705
G1 X125.919 Y174.26 E144.05763
G1 X125.202 Y174.141 E144.14485
G1 X124.503 Y173.943 E144.23203
G1 X123.83 Y173.67 E144.31918
G1 X123.191 Y173.325 E144.40632
G1 X122.594 Y172.911 E144.4935
G1 X122.464 Y172.798 E144.51417
G1 X122.078 Y173.074 E144.57111
G1 X121.444 Y173.428 E144.65825
G1 X120.775 Y173.711 E144.74542
G1 X120.079 Y173.919 E144.83259
G1 X119.364 Y174.049 E144.91979
G1 X118.543 Y174.1 E145.0185
G1 X104.458 Y174.1 E146.7087
G1 X103.733 Y174.06 E146.79584
G1 X103.016 Y173.941 E146.88305
G1 X102.317 Y173.743 E146.97023
G1 X101.644 Y173.47 E147.05739
G1 X101.005 Y173.125 E147.14453
G1 X100.539 Y172.802 E147.21257
G1 X99.969 Y173.222 E147.29753
G1 X99.341 Y173.586 E147.38463
G1 X98.676 Y173.878 E147.47179
G1 X97.983 Y174.096 E147.55897
G1 X97.27 Y174.236 E147.64616
G1 X96.354 Y174.3 E147.75635
G1 X93.638 Y174.3 E148.08227
G1 X92.913 Y174.26 E148.1694
G1 X92.196 Y174.141 E148.25662
G1 X91.497 Y173.943 E148.3438
G1 X90.824 Y173.67 E148.43095
G1 X90.185 Y173.325 E148.51809
G1 X89.588 Y172.911 E148.60527
G1 X88.971 Y172.367 E148.70398
G1 X88.737 Y172.133 E148.74369
G1 X88.253 Y171.592 E148.8308
G1 X87.83 Y171.001 E148.91801
G1 X87.476 Y170.367 E149.00515
G1 X87.193 Y169.698 E149.09232
G1 X86.985 Y169.002 E149.17949
G1 X86.855 Y168.287 E149.26669
G1 X86.804 Y167.466 E149.3654
G1 X86.805 Y57.759 E162.53024
G1 X86.845 Y57.034 E162.61738
G1 X86.964 Y56.317 E162.70459
G1 X87.162 Y55.618 E162.79177
G1 X87.435 Y54.945 E162.87892
G1 X87.78 Y54.306 E162.96607
G0 F3600 X88.179 Y54.423
G1 F1800 X88.656 Y53.773 E163.06282
G1 X88.839 Y53.555 E163.09697
G1 X89.322 Y53.042 E163.18152
G1 X89.859 Y52.587 E163.26598
G1 X90.445 Y52.197 E163.35045
G1 X91.071 Y51.875 E163.43493
G1 X91.73 Y51.626 E163.51947
G1 X92.302 Y51.476 E163.59043
G1 X92.769 Y51.377 E163.64771
G1 X93.465 Y51.27 E163.73221
G1 X93.923 Y51.243 E163.78727
G1 X96.231 Y51.194 E164.06429
G1 X96.935 Y51.219 E164.14882
G1 X97.631 Y51.324 E164.23329
G1 X98.311 Y51.507 E164.31779
G1 X98.966 Y51.766 E164.40231
G1 X99.587 Y52.097 E164.48676
G1 X100.166 Y52.497 E164.57121
G1 X100.594 Y52.869 E164.63926
G1 X100.668 Y52.805 E164.651
G1 X101.251 Y52.41 E164.7355
G1 X101.874 Y52.084 E164.81988
G1 X102.531 Y51.831 E164.90436
G1 X103.212 Y51.653 E164.98883
G1 X103.909 Y51.554 E165.07331
G1 X104.432 Y51.532 E165.13612
